!!!!SEGMENT: pl-sa--239-a-vi-43--001_naumann-johann-gottlieb--synphonia-in-d-allegro.krn
!!!cenid: 17xx:584
!!!COM: Naumann, Johann Gottlieb
!!!COM-rismID: pe90691
!!!CDT: 1741/04/17-1801/10/23
!!!CNT: German
!!!OPR: Synphonia in D
!!!OTL: Allegro
!!!OMV: 001
!!!PDT:
!!!AGN: Secular
!!!SMS-siglum: PL-SA
!!!SMS-shelfmark: 239/A VI 43
!!!SMS-shelfwork: 001-001 M
!!!SMS-variant:
!!!SMS-altvar:
!!!NIFC-rismSourceID: 1001035312
!!!NIFC-rismChildID: 1001035312
!!!NIFC-islandoraID: none
!!!URL-pdf-islandora:
!!!URL-scan: https://bc.bdsandomierz.pl/dlibra/publication/1273/edition/1241/content @EN{Scan in the Sandomierz Diocese Digital Library} @PL{Skany w portalu Cyfrowa Biblioteka Diecezjalna w Sandomierzu}
!!!ONB-nifc: UWAGA: części Synphonii: Allegro, Andante, Presto.
!!!AIN: 3 empty 2 oboe 2 tuba 1 viola 2 violn
!!!key:
**kern	**dynam	**kern	**dynam	**kern	**dynam	**kern	**dynam	**kern	**kern	**kern	**dynam	**kern	**dynam	**kern	**dynam	**kern	**dynam
*part10	*part10	*part9	*part9	*part8	*part8	*part7	*part7	*part6	*part5	*part4	*part4	*part3	*part3	*part2	*part2	*part1	*part1
*staff10	*staff10	*staff9	*staff9	*staff8	*staff8	*staff7	*staff7	*staff6	*staff5	*staff4	*staff4	*staff3	*staff3	*staff2	*staff2	*staff1	*staff1
*Iempty	*	*Iviola	*	*Ivioln	*	*Ivioln	*	*Ituba	*Ituba	*Iempty	*	*Iempty	*	*Ioboe	*	*Ioboe	*
*I"Fundamento	*	*I"Viola obligato	*	*I"Violino 2do	*	*I"Violino 1mo	*	*I"Tuba 2da in D	*I"Tuba 1ma in D	*I"Cornu 2do in D	*	*I"Cornu 1mo in D	*	*I"Oboi 2da	*	*I"Oboi 1ma	*
*I'bc	*	*I'vla	*	*I'vl 2	*	*I'vl 1	*	*I'tb marina 2 in D	*I'tb marina 1 in D	*I'cor 2 in D	*	*I'cor 1 in D	*	*I'ob 2	*	*I'ob 1	*
*clefF4	*	*clefC3	*	*clefG2	*	*clefG2	*	*clefG2	*clefG2	*clefG2	*	*clefG2	*	*clefG2	*	*clefG2	*
*	*	*	*	*	*	*	*	*ITrd-1c-2	*ITrd-1c-2	*ITrd6c10	*	*ITrd6c10	*	*	*	*	*
*k[f#c#]	*	*k[f#c#]	*	*k[f#c#]	*	*k[f#c#]	*	*k[f#c#]	*k[f#c#]	*k[f#c#]	*	*k[f#c#]	*	*k[f#c#]	*	*k[f#c#]	*
*D:	*	*D:	*	*D:	*	*D:	*	*D:	*D:	*D:	*	*D:	*	*D:	*	*D:	*
*M4/4	*	*M4/4	*	*M4/4	*	*M4/4	*	*M4/4	*M4/4	*M4/4	*	*M4/4	*	*M4/4	*	*M4/4	*
*met(c)	*	*met(c)	*	*met(c)	*	*met(c)	*	*met(c)	*met(c)	*met(c)	*	*met(c)	*	*met(c)	*	*met(c)	*
=1	=1	=1	=1	=1	=1	=1	=1	=1	=1	=1	=1	=1	=1	=1	=1	=1	=1
*2\right	*	*2\right	*	*2\right	*	*2\right	*	*	*	*2\right	*	*2\right	*	*2\right	*	*2\right	*
!	!	!	!	!	!	!	!	!	!	!	!	!	!	!	!	!LO:SIC:o=ſimphonia:v:t=w źródle napis ten znajduje się przed kluczem i oznaczeniem metrum	!
!	!	!	!	!	!	!	!	!	!	!	!	!	!	!LO:SIC:o=ſimphonia:v:t=w źródle napis ten znajduje się przed kluczem i oznaczeniem metrum	!	!	!
!	!	!	!	!	!	!	!	!	!	!	!	!LO:SIC:o=ſimphonia:v:t=w źródle napis ten znajduje się przed kluczem i oznaczeniem metrum	!	!	!	!	!
!	!	!	!	!	!	!	!	!	!	!LO:SIC:o=ſimphonia:v:t=w źródle napis ten znajduje się przed kluczem i oznaczeniem metrum	!	!	!	!	!	!	!
!	!	!	!	!	!	!	!	!	!LO:SIC:o=ſimpho:v:t=w źródle napis ten znajduje się przed kluczem i oznaczeniem metrum	!	!	!	!	!	!	!	!
!	!	!	!	!	!	!	!	!LO:SIC:o=ſimphonia:v:t=w źródle napis ten znajduje się przed kluczem i oznaczeniem metrum	!	!	!	!	!	!	!	!	!
!	!	!	!	!	!	!LO:SIC:o=ſimphonia:v:t=w źródle napis ten znajduje się przed kluczem i oznaczeniem metrum	!	!	!	!	!	!	!	!	!	!	!
!	!	!	!	!LO:SIC:o=ſimphonia:v:t=w źródle napis ten znajduje się przed kluczem i oznaczeniem metrum	!	!	!	!	!	!	!	!	!	!	!	!	!
!	!	!LO:SIC:o=ſimphonia:v:t=w źródle napis ten znajduje się przed kluczem i oznaczeniem metrum	!	!	!	!	!	!	!	!	!	!	!	!	!	!	!
!LO:SIC:o=ſimphonia:v:t=w źródle napis ten znajduje się przed kluczem i oznaczeniem metrum	!	!	!	!	!	!	!	!	!	!	!	!	!	!	!	!	!
!	!	!LO:TX:a:i:t=Allo	!	!LO:TX:a:i:t=Allo	!	!LO:TX:a:i:t=Allo	!	!LO:TX:a:i:t=Allo	!LO:TX:a:i:t=Allo	!LO:TX:a:i:t=Allo	!	!LO:TX:a:i:t=Allo	!	!LO:TX:a:i:t=Allo	!	!LO:TX:a:i:t=Allo	!
!LO:TX:a:t=P:problem=w źródle brak znaków przykluczowych	!	!	!	!	!	!	!	!	!	!	!	!	!	!	!	!	!
!	!	!	!	!LO:TX:a:t=P:problem=znak początku repetycji	!	!	!	!	!	!	!	!	!	!	!	!	!
4D\	.	4d\	.	4d/	.	4d/	.	4d/	4d/	4D/	.	4d\	.	4d/	.	4d/	.
4F#\	.	4f#\	.	4f#/	.	4f#/	.	4f#/	4f#/	4F#/	.	4f#\	.	4f#/	.	4f#/	.
4A\	.	4a\	.	4a/	.	4a/	.	4a/	4a/	4A/	.	4a\	.	4a/	.	4a/	.
8r	.	8r	.	8r	.	8r	.	4r	4r	4r	.	4r	.	8r	.	8r	.
8F#\	.	8f#\	.	8f#/	.	8f#/	.	.	.	.	.	.	.	8f#/	.	8f#/	.
=2	=2	=2	=2	=2	=2	=2	=2	=2	=2	=2	=2	=2	=2	=2	=2	=2	=2
!	!	!	!	!	!	!	!	!LO:TX:a:t=3	!LO:TX:a:t=3	!LO:TX:a:t=3	!	!LO:TX:a:i:t=3	!	!	!	!	!
8G\L	.	8g\L	.	8g\L	.	8g\L	.	0r	0r	0r	.	0r	.	8g/L	.	8g\L	.
8A\	.	8a\	.	8a\	.	8a\	.	.	.	.	.	.	.	8a/	.	8a\	.
8B\	.	8b\	.	8b\	.	8b\	.	.	.	.	.	.	.	8b/	.	8b\	.
8c#\J	.	8cc#\J	.	8cc#\J	.	8cc#\J	.	.	.	.	.	.	.	8cc#/J	.	8cc#\J	.
4d\	.	4dd\	.	4dd\	.	4dd\	.	.	.	.	.	.	.	4dd\	.	4dd\	.
4r	.	4r	.	4r	.	4r	.	.	.	.	.	.	.	4r	.	4r	.
=3	=3	=3	=3	=3	=3	=3	=3	=3	=3	=3	=3	=3	=3	=3	=3	=3	=3
!LO:TX:a:t=2	!	!LO:TX:a:t=2	!	!	!	!	!	!	!	!	!	!	!	!LO:TX:a:t=2	!	!	!
!	!	!	!	!	!	!	!LO:DY:b:t=%sn:rj	!	!	!	!	!	!	!	!	!LO:TX:a:t=2	!
.	.	.	.	.	.	8qqgg/	p	.	.	.	.	.	.	.	.	.	.
!	!	!	!	!	!LO:DY:b:t=%sn:rj	!	!	!	!	!	!	!	!	!	!	!	!
0r	.	0r	.	8dd\L	p	(>32ff#\LLL	.	.	.	.	.	.	.	0r	.	0r	.
.	.	.	.	.	.	32ee\JJ)	.	.	.	.	.	.	.	.	.	.	.
.	.	.	.	.	.	8.ff#\J	.	.	.	.	.	.	.	.	.	.	.
.	.	.	.	8a\	.	.	.	.	.	.	.	.	.	.	.	.	.
.	.	.	.	8dd\	.	8ff#`>\L	.	.	.	.	.	.	.	.	.	.	.
.	.	.	.	8a\J	.	8ff#`>\J	.	.	.	.	.	.	.	.	.	.	.
.	.	.	.	8cc#\L	.	4ee\	.	.	.	.	.	.	.	.	.	.	.
.	.	.	.	8a\	.	.	.	.	.	.	.	.	.	.	.	.	.
.	.	.	.	8cc#\	.	4r	.	.	.	.	.	.	.	.	.	.	.
.	.	.	.	8a\J	.	.	.	.	.	.	.	.	.	.	.	.	.
=4	=4	=4	=4	=4	=4	=4	=4	=4	=4	=4	=4	=4	=4	=4	=4	=4	=4
.	.	.	.	.	.	8qqaa/	.	.	.	.	.	.	.	.	.	.	.
.	.	.	.	8ee\L	.	(>32gg\LLL	.	1r	1r	1r	.	1r	.	.	.	.	.
.	.	.	.	.	.	32ff#\JJ)	.	.	.	.	.	.	.	.	.	.	.
.	.	.	.	.	.	8.gg\J	.	.	.	.	.	.	.	.	.	.	.
.	.	.	.	8a\	.	.	.	.	.	.	.	.	.	.	.	.	.
.	.	.	.	8ee\	.	8gg`>\L	.	.	.	.	.	.	.	.	.	.	.
.	.	.	.	8a\J	.	8gg`>\J	.	.	.	.	.	.	.	.	.	.	.
.	.	.	.	8dd\L	.	4ff#\	.	.	.	.	.	.	.	.	.	.	.
.	.	.	.	8a\	.	.	.	.	.	.	.	.	.	.	.	.	.
.	.	.	.	8dd\	.	4r	.	.	.	.	.	.	.	.	.	.	.
.	.	.	.	8a\J	.	.	.	.	.	.	.	.	.	.	.	.	.
!	!	!	!	!	!	!LO:LB:g=original	!	!	!	!	!	!	!	!	!	!	!
=5	=5	=5	=5	=5	=5	=5	=5	=5	=5	=5	=5	=5	=5	=5	=5	=5	=5
*	*	*^	*	*	*	*	*	*	*	*	*	*	*	*	*	*	*
*tremolo	*	*tremolo	*tremolo	*	*	*	*	*	*	*	*	*	*	*	*	*	*	*
!	!	!	!	!	!	!	!	!LO:DY:b:rj	!	!	!	!	!	!	!	!	!	!
8D\L	.	16a/LL	16f#\LL	.	8ff# 8a 8d/	.	(>8aa\L	f	4d/	4dd\	4D/	.	4d\	.	4ff#\	.	4aa\	.
.	.	16a/	16f#\	.	.	.	.	.	.	.	.	.	.	.	.	.	.	.
8D\	.	16a/	16f#\	.	8r	.	8ddd\J)	.	.	.	.	.	.	.	.	.	.	.
.	.	16a/JJ	16f#\JJ	.	.	.	.	.	.	.	.	.	.	.	.	.	.	.
8D\	.	16b/LL	16g\LL	.	8gg 8b 8d/	.	8bb`>\L	.	4r	4r	4D/	.	4d\	.	4gg\	.	4bb\	.
.	.	16b/	16g\	.	.	.	.	.	.	.	.	.	.	.	.	.	.	.
8D\J	.	16b/	16g\	.	8r	.	8gg`>\J	.	.	.	.	.	.	.	.	.	.	.
.	.	16b/JJ	16g\JJ	.	.	.	.	.	.	.	.	.	.	.	.	.	.	.
8D\L	.	16a/LL	16f#\LL	.	8ff# 8a 8d/	.	(>8aa\L	.	4d/	4dd\	4D/	.	4d\	.	4ff#\	.	4aa\	.
.	.	16a/	16f#\	.	.	.	.	.	.	.	.	.	.	.	.	.	.	.
8D\	.	16a/	16f#\	.	8r	.	8ddd\J)	.	.	.	.	.	.	.	.	.	.	.
.	.	16a/JJ	16f#\JJ	.	.	.	.	.	.	.	.	.	.	.	.	.	.	.
8D\	.	16b/LL	16g\LL	.	8gg 8b 8d/	.	8bb`>\L	.	4r	4r	4D/	.	4d\	.	4gg\	.	4bb\	.
.	.	16b/	16g\	.	.	.	.	.	.	.	.	.	.	.	.	.	.	.
8D\J	.	16b/	16g\	.	8r	.	8gg`>\J	.	.	.	.	.	.	.	.	.	.	.
.	.	16b/JJ	16g\JJ	.	.	.	.	.	.	.	.	.	.	.	.	.	.	.
*Xtremolo	*	*Xtremolo	*Xtremolo	*	*	*	*	*	*	*	*	*	*	*	*	*	*	*
!	!	!	!	!	!LO:LB:g=original	!	!	!	!	!	!	!	!	!	!	!	!	!
=6	=6	=6	=6	=6	=6	=6	=6	=6	=6	=6	=6	=6	=6	=6	=6	=6	=6	=6
4D\	.	4a/	4f#\	.	4ff# 4a 4d/	.	(>8aa\L	.	4d/	4dd\	4D/	.	4d\	.	4ff#\	.	4aa\	.
.	.	.	.	.	.	.	8ddd\J)	.	.	.	.	.	.	.	.	.	.	.
4G\	.	4g\	2.ryy	.	4gg 4b 4d/	.	8ee`>\L	.	4r	4r	4r	.	4r	.	4gg\	.	4bb\	.
.	.	.	.	.	.	.	8bb`>\J	.	.	.	.	.	.	.	.	.	.	.
.	.	.	.	.	.	.	8qqaa/	.	.	.	.	.	.	.	.	.	.	.
4A\	.	4a\	.	.	4ff# 4a 4d/	.	8aa\L	.	4dd\	4ff#\	4d\	.	4f#\	.	4ff#\	.	4aa\	.
.	.	.	.	.	.	.	16gg\L	.	.	.	.	.	.	.	.	.	.	.
.	.	.	.	.	.	.	16ff#\JJ	.	.	.	.	.	.	.	.	.	.	.
.	.	.	.	.	.	.	8qqff#/	.	.	.	.	.	.	.	.	.	.	.
4AA/	.	4A/	.	.	4cc# 4e 4A/	.	8ee\L	.	4a/	4ee\	4A/	.	4e\	.	4ee\	.	4cc#\	.
.	.	.	.	.	.	.	16dd\L	.	.	.	.	.	.	.	.	.	.	.
.	.	.	.	.	.	.	16cc#\JJ	.	.	.	.	.	.	.	.	.	.	.
!	!	!	!	!	!LO:TX:a:t=P:problem=znak końca repetycji	!	!	!	!	!	!	!	!	!	!	!	!	!
*	*	*v	*v	*	*	*	*	*	*	*	*	*	*	*	*	*	*	*
=7	=7	=7	=7	=7	=7	=7	=7	=7	=7	=7	=7	=7	=7	=7	=7	=7	=7
*	*	*	*	*rep	*	*	*	*	*	*	*	*	*	*	*	*	*
!	!	!	!	!LO:TX:a:t=P:problem=powtórzenie taktów oznaczone znakami repetycji	!	!	!	!	!	!	!	!	!	!	!	!	!
4D\	.	4d\	.	4d/	.	4dd`>\	.	4d/	4dd\	4D/	.	4d\	.	4d/	.	4d/	.
4F#\	.	4f#\	.	4f#/	.	4f#`</	.	4f#/	4f#/	4F#/	.	4f#\	.	4f#/	.	4f#/	.
4A\	.	4a\	.	4a/	.	4a`</	.	4a/	4a/	4A/	.	4a\	.	4a/	.	4a/	.
8r	.	8r	.	8r	.	8r	.	4r	4r	4r	.	4r	.	8r	.	8r	.
8F#\	.	8f#\	.	8f#/	.	8f#/	.	.	.	.	.	.	.	8f#/	.	8f#/	.
=8	=8	=8	=8	=8	=8	=8	=8	=8	=8	=8	=8	=8	=8	=8	=8	=8	=8
!	!	!	!	!	!	!	!	!LO:TX:a:t=3	!LO:TX:a:t=3	!	!	!	!	!	!	!	!
8G\L	.	8g\L	.	8g\L	.	8g`</L	.	0r	0r	1r	.	1r	.	8g/L	.	8g/L	.
8A\J	.	8a\	.	8a\	.	8a`</	.	.	.	.	.	.	.	8a/	.	8a/	.
!LO:LB:g=original	!	!	!	!	!	!	!	!	!	!	!	!	!	!	!	!	!
8B\L	.	8b\	.	8b\	.	8b`</	.	.	.	.	.	.	.	8b/	.	8b/	.
8c#\J	.	8cc#\J	.	8cc#\J	.	8cc#`</J	.	.	.	.	.	.	.	8cc#/J	.	8cc#/J	.
!	!	!LO:LB:g=original	!	!	!	!	!	!	!	!	!	!	!	!	!	!LO:LB:g=original	!
!	!	!LO:SIC:s=4dd:v	!	!	!	!	!	!	!	!	!	!	!	!	!	!	!
4d\	.	4dd 4b\	.	4dd\	.	4dd\	.	.	.	.	.	.	.	4dd\	.	4dd\	.
4r	.	4r	.	4r	.	4r	.	.	.	.	.	.	.	4r	.	4r	.
!	!	!	!	!	!	!	!	!	!	!	!	!	!	!LO:LB:g=original	!	!	!
=9	=9	=9	=9	=9	=9	=9	=9	=9	=9	=9	=9	=9	=9	=9	=9	=9	=9
.	.	.	.	.	.	8qqgg/	.	.	.	.	.	.	.	.	.	.	.
!LO:TX:a:t=2	!	!LO:TX:a:t=2	!	!	!	!	!	!	!	!	!	!	!	!	!	!	!
!	!	!	!	!	!LO:DY:b:t=%sn:rj	!	!	!	!	!	!	!	!	!	!	!	!LO:DY:b:rj
0r	.	0r	.	8dd\L	p	(>32ff#\LLL	p	.	.	4r	.	4r	.	4r	.	4r	p
.	.	.	.	.	.	32ee\JJ)	.	.	.	.	.	.	.	.	.	.	.
!	!	!	!	!	!	!LO:N:vis=8	!	!	!	!	!	!	!	!	!	!	!
.	.	.	.	.	.	8.ff#\J	.	.	.	.	.	.	.	.	.	.	.
.	.	.	.	8a\	.	.	.	.	.	.	.	.	.	.	.	.	.
!	!	!	!	!	!	!	!	!	!	!	!	!	!LO:DY:b:rj	!	!	!	!
.	.	.	.	8dd\	.	8ff#`>\L	.	.	.	8F#/L	p	8d\L	p	8dd\L	p	8ff#\L	.
.	.	.	.	8a\J	.	8ff#`>\J	.	.	.	8F#/J	.	8d\J	.	8dd\J	.	8ff#\J	.
.	.	.	.	8cc#\L	.	4ee\	.	.	.	4A/	.	4e\	.	4cc#\	.	4ee\	.
.	.	.	.	8a\	.	.	.	.	.	.	.	.	.	.	.	.	.
.	.	.	.	8cc#\	.	4r	.	.	.	4r	.	4r	.	4r	.	4r	.
.	.	.	.	8a\J	.	.	.	.	.	.	.	.	.	.	.	.	.
!	!	!	!	!	!	!LO:LB:g=original	!	!	!	!	!	!	!	!	!	!	!
=10	=10	=10	=10	=10	=10	=10	=10	=10	=10	=10	=10	=10	=10	=10	=10	=10	=10
.	.	.	.	.	.	8qqaa/	.	.	.	.	.	.	.	.	.	.	.
.	.	.	.	8ee\L	.	(>32gg\LLL	.	1r	1r	4r	.	4r	.	4r	.	4r	.
.	.	.	.	.	.	32ff#\JJ	.	.	.	.	.	.	.	.	.	.	.
.	.	.	.	.	.	8.gg\J)	.	.	.	.	.	.	.	.	.	.	.
.	.	.	.	8a\	.	.	.	.	.	.	.	.	.	.	.	.	.
.	.	.	.	8ee\	.	8gg`>\L	.	.	.	8A/L	.	8e\L	.	8ee\L	.	8gg\L	.
.	.	.	.	8a\J	.	8gg`>\J	.	.	.	8A/J	.	8e\J	.	8ee\J	.	8gg\J	.
.	.	.	.	8dd\L	.	4ff#\	.	.	.	4d\	.	4f#\	.	4dd\	.	4ff#\	.
.	.	.	.	8a\	.	.	.	.	.	.	.	.	.	.	.	.	.
.	.	.	.	8dd\	.	4r	.	.	.	4r	.	4r	.	4r	.	4r	.
.	.	.	.	8a\J	.	.	.	.	.	.	.	.	.	.	.	.	.
=11	=11	=11	=11	=11	=11	=11	=11	=11	=11	=11	=11	=11	=11	=11	=11	=11	=11
*	*	*^	*	*	*	*	*	*	*	*	*	*	*	*	*	*	*
*tremolo	*	*tremolo	*tremolo	*	*	*	*	*	*	*	*	*	*	*	*	*	*	*
!	!	!	!	!	!	!	!	!LO:DY:b:rj	!	!	!	!LO:DY:b:rj	!	!LO:DY:b:rj	!	!	!	!
8D\L	.	16a/LL	16f#\LL	.	8ff# 8a 8d/	.	(>8aa\L	p	4d/	4dd\	4D/	f	4d\	f	4ff#\	.	4aa\	f
.	.	16a/	16f#\	.	.	.	.	.	.	.	.	.	.	.	.	.	.	.
8D\	.	16a/	16f#\	.	8r	.	8ddd\J)	.	.	.	.	.	.	.	.	.	.	.
.	.	16a/JJ	16f#\JJ	.	.	.	.	.	.	.	.	.	.	.	.	.	.	.
8D\	.	16b/LL	16g\LL	.	8gg 8b 8d/	.	8bb`>\L	.	4r	4r	8r	.	8r	.	4gg\	.	4bb\	.
.	.	16b/	16g\	.	.	.	.	.	.	.	.	.	.	.	.	.	.	.
8D\J	.	16b/	16g\	.	8r	.	8gg`>\J	.	.	.	8D/	.	8d\	.	.	.	.	.
.	.	16b/JJ	16g\JJ	.	.	.	.	.	.	.	.	.	.	.	.	.	.	.
8D\L	.	16a/LL	16f#\LL	.	8ff# 8a 8d/	.	(>8aa\L	.	4d/	4dd\	4D/	.	4d\	.	4ff#\	.	4aa\	.
.	.	16a/	16f#\	.	.	.	.	.	.	.	.	.	.	.	.	.	.	.
8D\	.	16a/	16f#\	.	8r	.	8ddd\J)	.	.	.	.	.	.	.	.	.	.	.
.	.	16a/JJ	16f#\JJ	.	.	.	.	.	.	.	.	.	.	.	.	.	.	.
8D\	.	16b/LL	16g\LL	.	8gg 8b 8d/	.	8bb`>\L	.	4r	4r	8r	.	8r	.	4gg\	.	4bb\	.
.	.	16b/	16g\	.	.	.	.	.	.	.	.	.	.	.	.	.	.	.
8D\J	.	16b/	16g\	.	8r	.	8gg`>\J	.	.	.	8D/	.	8d\	.	.	.	.	.
.	.	16b/JJ	16g\JJ	.	.	.	.	.	.	.	.	.	.	.	.	.	.	.
*Xtremolo	*	*Xtremolo	*Xtremolo	*	*	*	*	*	*	*	*	*	*	*	*	*	*	*
=12	=12	=12	=12	=12	=12	=12	=12	=12	=12	=12	=12	=12	=12	=12	=12	=12	=12	=12
4D\	.	4a/	4f#\	.	4ff# 4a 4d/	.	8aa\L	.	4d/	4dd\	4D/	.	4d\	.	4ff#\	.	4aa\	.
.	.	.	.	.	.	.	8ddd\J	.	.	.	.	.	.	.	.	.	.	.
4G\	.	4g\	2.ryy	.	4gg 4b 4d/	.	8ee\L	.	4r	4r	4r	.	4r	.	4gg\	.	4bb\	.
.	.	.	.	.	.	.	8bb\J	.	.	.	.	.	.	.	.	.	.	.
4A\	.	4a\	.	.	4ff# 4a 4d/	.	8aa\L	.	4dd\	4ff#\	4d\	.	4f#\	.	4ff#\	.	4aa\	.
.	.	.	.	.	.	.	16gg\L	.	.	.	.	.	.	.	.	.	.	.
.	.	.	.	.	.	.	16ff#\JJ	.	.	.	.	.	.	.	.	.	.	.
4AA/	.	4A/	.	.	4cc# 4e 4A/	.	8ee\L	.	4a/	4ee\	4A/	.	4e\	.	4ee\	.	4cc#\	.
.	.	.	.	.	.	.	16dd\L	.	.	.	.	.	.	.	.	.	.	.
.	.	.	.	.	.	.	16cc#\JJ	.	.	.	.	.	.	.	.	.	.	.
*	*	*	*	*	*Xrep	*	*	*	*	*	*	*	*	*	*	*	*	*
*	*	*v	*v	*	*	*	*	*	*	*	*	*	*	*	*	*	*	*
=13	=13	=13	=13	=13	=13	=13	=13	=13	=13	=13	=13	=13	=13	=13	=13	=13	=13
8r	.	4f#\	.	4dd 4d/	.	4dd 4d/	.	4f#/	4dd\	4F#/	.	4d\	.	4dd\	.	4dd\	.
8d\	.	.	.	.	.	.	.	.	.	.	.	.	.	.	.	.	.
8r	.	8r	.	4r	.	4ff# 4a 4d/	.	4r	4r	4r	.	4r	.	4r	.	4r	.
8d\	.	8f#\	.	.	.	.	.	.	.	.	.	.	.	.	.	.	.
8r	.	4f#\	.	4dd 4d/	.	4aa 4a 4d/	.	4f#/	4dd\	4F#/	.	4d\	.	4a/	.	4dd\	.
8d\	.	.	.	.	.	.	.	.	.	.	.	.	.	.	.	.	.
4r	.	8r	.	4ff# 4d/	.	4r	.	4f#/	4dd\	4r	.	4r	.	4dd\	.	4ff#\	.
.	.	8f#\	.	.	.	.	.	.	.	.	.	.	.	.	.	.	.
!	!	!	!	!	!	!	!	!	!	!	!	!LO:LB:g=original	!	!	!	!	!
=14	=14	=14	=14	=14	=14	=14	=14	=14	=14	=14	=14	=14	=14	=14	=14	=14	=14
*tremolo	*	*tremolo	*	*	*	*	*	*	*	*	*	*	*	*	*	*	*
8d\L	.	8f#\L	.	4aa 4a 4d/	.	4ff# 4a 4d/	.	4f#/	4dd\	4F#/	.	4d\	.	4ff#\	.	4aa\	.
8d\	.	8f#\	.	.	.	.	.	.	.	.	.	.	.	.	.	.	.
!	!	!	!	!	!	!	!	!	!	!LO:LB:g=original	!	!	!	!	!	!	!
8d\	.	8f#\	.	16ff#LL 16a/	.	4aa 4a 4d/	.	4r	4r	4F#/	.	4d\	.	2dd\	.	2ff#\	.
.	.	.	.	16ff# 16a/	.	.	.	.	.	.	.	.	.	.	.	.	.
8d\J	.	8f#\J	.	16ff# 16a/	.	.	.	.	.	.	.	.	.	.	.	.	.
.	.	.	.	16ff#JJ 16a/	.	.	.	.	.	.	.	.	.	.	.	.	.
*	*	*	*	*tremolo	*	*	*	*	*	*	*	*	*	*	*	*	*
8d\L	.	8a\L	.	16ff# 16a/LL	.	4ddd 4a 4d/	.	4dd\	4ff#\	4F#/	.	4d\	.	.	.	.	.
.	.	.	.	16ff# 16a/	.	.	.	.	.	.	.	.	.	.	.	.	.
8d\	.	8a\	.	16ff# 16a/	.	.	.	.	.	.	.	.	.	.	.	.	.
.	.	.	.	16ff# 16a/	.	.	.	.	.	.	.	.	.	.	.	.	.
8d\	.	8a\	.	16ff# 16a/	.	4r	.	4r	4r	4F#/	.	4d\	.	4dd\	.	4ff#\	.
.	.	.	.	16ff# 16a/	.	.	.	.	.	.	.	.	.	.	.	.	.
8d\J	.	8a\J	.	16ff# 16a/	.	.	.	.	.	.	.	.	.	.	.	.	.
.	.	.	.	16ff# 16a/JJ	.	.	.	.	.	.	.	.	.	.	.	.	.
*Xtremolo	*	*Xtremolo	*	*Xtremolo	*	*	*	*	*	*	*	*	*	*	*	*	*
=15	=15	=15	=15	=15	=15	=15	=15	=15	=15	=15	=15	=15	=15	=15	=15	=15	=15
4c#\	.	4a\	.	4ee 4a/	.	4a/	.	4a/	4ee\	4A/	.	4e\	.	4a/	.	4ee\	.
8r	.	8r	.	4r	.	4cc#\	.	4r	4r	4r	.	4r	.	4r	.	4r	.
8c#\	.	8a\	.	.	.	.	.	.	.	.	.	.	.	.	.	.	.
!	!	!	!	!	!	!	!	!	!LO:LB:g=original	!	!	!	!	!	!	!	!
!	!	!	!	!	!	!	!	!	!	!	!	!	!	!LO:SIC:s=4e:v	!	!	!
4c#\	.	4a\	.	4a\	.	4ee\	.	4a/	4ee\	4A/	.	4e\	.	4d/	.	4a/	.
8r	.	8r	.	4cc#\	.	4r	.	4a/	4ee\	4r	.	4r	.	4a/	.	4cc#/	.
8c#\	.	8a\	.	.	.	.	.	.	.	.	.	.	.	.	.	.	.
!	!	!	!	!	!	!LO:LB:g=original	!	!	!	!	!	!	!	!	!	!	!
=16	=16	=16	=16	=16	=16	=16	=16	=16	=16	=16	=16	=16	=16	=16	=16	=16	=16
*tremolo	*	*tremolo	*	*	*	*	*	*	*	*	*	*	*	*	*	*	*
8A\L	.	8cc#\L	.	4ee\	.	4ee 4a/	.	4a/	4ee\	4A/	.	4e\	.	4cc#\	.	4ee\	.
8A\	.	8cc#\	.	.	.	.	.	.	.	.	.	.	.	.	.	.	.
*	*	*	*	*tremolo	*	*	*	*	*	*	*	*	*	*	*	*	*
8A\	.	8cc#\	.	16ee 16a/LL	.	4aa 4a/	.	4r	4r	4A/	.	4e\	.	2cc#\	.	2ee\	.
.	.	.	.	16ee 16a/	.	.	.	.	.	.	.	.	.	.	.	.	.
8A\J	.	8cc#\J	.	16ee 16a/	.	.	.	.	.	.	.	.	.	.	.	.	.
.	.	.	.	16ee 16a/JJ	.	.	.	.	.	.	.	.	.	.	.	.	.
!	!	!	!	!	!	!	!	!LO:LB:g=original	!	!	!	!	!	!	!	!	!
8A\L	.	8cc#\L	.	16ee 16a/LL	.	4ccc# 4a/	.	4a/	4ee\	4A/	.	4e\	.	.	.	.	.
.	.	.	.	16ee 16a/	.	.	.	.	.	.	.	.	.	.	.	.	.
8A\	.	8cc#\	.	16ee 16a/	.	.	.	.	.	.	.	.	.	.	.	.	.
.	.	.	.	16ee 16a/	.	.	.	.	.	.	.	.	.	.	.	.	.
8A\	.	8cc#\	.	16ee 16a/	.	4r	.	4r	4r	4A/	.	4e\	.	4cc#\	.	4ee\	.
.	.	.	.	16ee 16a/	.	.	.	.	.	.	.	.	.	.	.	.	.
8A\J	.	8cc#\J	.	16ee 16a/	.	.	.	.	.	.	.	.	.	.	.	.	.
.	.	.	.	16ee 16a/JJ	.	.	.	.	.	.	.	.	.	.	.	.	.
*Xtremolo	*	*Xtremolo	*	*Xtremolo	*	*	*	*	*	*	*	*	*	*	*	*	*
!	!	!	!	!	!	!	!	!	!	!	!	!	!	!	!	!LO:LB:g=original	!
=17	=17	=17	=17	=17	=17	=17	=17	=17	=17	=17	=17	=17	=17	=17	=17	=17	=17
4B\	.	4b\	.	4dd 4d/	.	4dd\	.	4dd\	4dd\	4d\	.	4d\	.	4b\	.	4dd\	.
8r	.	8r	.	4r	.	4gg#X\	.	4r	4r	4r	.	4r	.	4r	.	4r	.
8B\	.	8b\	.	.	.	.	.	.	.	.	.	.	.	.	.	.	.
!	!	!LO:LB:g=original	!	!	!	!	!	!	!	!	!	!	!	!	!	!	!
4B\	.	4b\	.	4dd\	.	4bb\	.	4dd\	4dd\	4d\	.	4d\	.	4b\	.	4dd\	.
8r	.	8r	.	4gg#X\	.	4r	.	4dd\	4dd\	4r	.	4r	.	4b\	.	4gg#X\	.
8B\	.	8b\	.	.	.	.	.	.	.	.	.	.	.	.	.	.	.
!LO:LB:g=original	!	!	!	!	!	!	!	!	!	!	!	!	!	!	!	!	!
=18	=18	=18	=18	=18	=18	=18	=18	=18	=18	=18	=18	=18	=18	=18	=18	=18	=18
*tremolo	*	*tremolo	*	*	*	*	*	*	*	*	*	*	*	*	*	*	*
!	!	!	!	!	!	!LO:SIC:n=1:s=4gg#:v	!	!	!	!	!	!	!	!	!	!	!
8E\L	.	8b\L	.	4bb\	.	4gg 4b 4e/	.	4dd\	4dd\	4e\	.	4e\	.	4dd\	.	4bb\	.
8E\	.	8b\	.	.	.	.	.	.	.	.	.	.	.	.	.	.	.
*	*	*	*	*tremolo	*	*	*	*	*	*	*	*	*	*	*	*	*
8E\	.	8b\	.	16dd 16e/LL	.	4bb\	.	4r	4r	4e\	.	4e\	.	2b\	.	2dd\	.
.	.	.	.	16dd 16e/	.	.	.	.	.	.	.	.	.	.	.	.	.
8E\J	.	8b\J	.	16dd 16e/	.	.	.	.	.	.	.	.	.	.	.	.	.
.	.	.	.	16dd 16e/JJ	.	.	.	.	.	.	.	.	.	.	.	.	.
8E\L	.	8g#X\L	.	16dd 16e/LL	.	4ddd\	.	4dd\	4dd\	4e\	.	4e\	.	.	.	.	.
.	.	.	.	16dd 16e/	.	.	.	.	.	.	.	.	.	.	.	.	.
8E\	.	8g#X\	.	16dd 16e/	.	.	.	.	.	.	.	.	.	.	.	.	.
.	.	.	.	16dd 16e/	.	.	.	.	.	.	.	.	.	.	.	.	.
8E\	.	8g#X\	.	16dd 16e/	.	4r	.	4r	4r	4e\	.	4e\	.	4b\	.	4dd\	.
.	.	.	.	16dd 16e/	.	.	.	.	.	.	.	.	.	.	.	.	.
8E\J	.	8g#X\J	.	16dd 16e/	.	.	.	.	.	.	.	.	.	.	.	.	.
.	.	.	.	16dd 16e/JJ	.	.	.	.	.	.	.	.	.	.	.	.	.
*Xtremolo	*	*Xtremolo	*	*Xtremolo	*	*	*	*	*	*	*	*	*	*	*	*	*
!	!	!	!	!	!	!	!	!	!	!	!	!	!	!LO:LB:g=original	!	!	!
!	!	!	!	!LO:LB:g=original	!	!	!	!	!	!	!	!	!	!	!	!	!
=19	=19	=19	=19	=19	=19	=19	=19	=19	=19	=19	=19	=19	=19	=19	=19	=19	=19
4A\	.	4a\	.	4cc# 4e/	.	8r	.	4a/	4a/	4A/	.	4e\	.	4a/	.	4cc#\	.
.	.	.	.	.	.	4aa\	.	.	.	.	.	.	.	.	.	.	.
8r	.	8r	.	8r	.	.	.	4r	4r	4r	.	4r	.	8r	.	2aa\	.
16A\LL	.	16a\LL	.	16cc#\LL	.	4aa\	.	.	.	.	.	.	.	16cc#\LL	.	.	.
16B\JJ	.	16b\JJ	.	16dd\JJ	.	.	.	.	.	.	.	.	.	16dd\JJ	.	.	.
8c#\L	.	8cc#\L	.	8ee\L	.	.	.	4r	4r	4A/	.	4e\	.	8ee\L	.	.	.
8A\	.	8a\	.	8cc#\	.	4aa\	.	.	.	.	.	.	.	8cc#\	.	.	.
8d\	.	8dd\	.	8ff#\	.	.	.	4a/	4a/	4d/	.	4f#\	.	8ff#\	.	[<4aa\	.
8B\J	.	8b\J	.	8dd\J	.	[>8aa\	.	.	.	.	.	.	.	8dd\J	.	.	.
=20	=20	=20	=20	=20	=20	=20	=20	=20	=20	=20	=20	=20	=20	=20	=20	=20	=20
4c#\	.	4cc#\	.	4ee\	.	8aa\]	.	4a/	4a/	4A/	.	4e\	.	4ee\	.	4aa\]	.
.	.	.	.	.	.	4aa\	.	.	.	.	.	.	.	.	.	.	.
8r	.	8r	.	8r	.	.	.	4r	4r	4r	.	4r	.	8r	.	2aa\	.
16A\LL	.	16a\LL	.	16cc#\LL	.	4aa\	.	.	.	.	.	.	.	16cc#\LL	.	.	.
16B\JJ	.	16b\JJ	.	16dd\JJ	.	.	.	.	.	.	.	.	.	16dd\JJ	.	.	.
8c#\L	.	8cc#\L	.	8ee\L	.	.	.	4r	4r	4A/	.	4e\	.	8ee\L	.	.	.
8A\	.	8a\	.	8cc#\	.	4aa\	.	.	.	.	.	.	.	8cc#\	.	.	.
8d\	.	8dd\	.	8ff#\	.	.	.	4a/	4a/	4d/	.	4f#\	.	8ff#\	.	4aa\	.
8B\J	.	8b\J	.	8dd\J	.	[>8aa\	.	.	.	.	.	.	.	8dd\J	.	.	.
=21	=21	=21	=21	=21	=21	=21	=21	=21	=21	=21	=21	=21	=21	=21	=21	=21	=21
4c#\	.	4cc#\	.	8ee\	.	8aa\]	f	4a/	4a/	4A/	.	4e\	.	8ee\	f	8aa\	f
.	.	.	.	4aa\	.	4aa\	.	.	.	.	.	.	.	4aa\	.	4aa\	.
4c#\	.	2a\	.	.	.	.	.	4r	4r	4r	.	4r	.	.	.	.	.
.	.	.	.	4gg#X\	.	4gg#X\	.	.	.	.	.	.	.	4gg#X\	.	4gg#X\	.
4d\	.	.	.	.	.	.	.	2r	2r	2r	.	2r	.	.	.	.	.
.	.	.	.	4ff#\	.	4ff#\	.	.	.	.	.	.	.	4ff#\	.	4ff#\	.
4c#\	.	4a\	.	.	.	.	.	.	.	.	.	.	.	.	.	.	.
.	.	.	.	8ee#X\	.	8ee#X\	.	.	.	.	.	.	.	8ee#X\	.	8ee#X\	.
=22	=22	=22	=22	=22	=22	=22	=22	=22	=22	=22	=22	=22	=22	=22	=22	=22	=22
!	!	!	!	!	!	!	!	!LO:TX:a:t=2	!	!LO:TX:a:t=2	!	!LO:TX:a:t=2	!	!	!	!	!
!	!	!	!	!LO:SIC:s=8ee#:v	!	!LO:SIC:s=8ee#:v	!	!	!	!	!	!	!	!LO:SIC:s=8ee#:v	!	!LO:SIC:s=8ee#:v	!
4d\	.	4a\	.	8ee\	.	8ee\	.	0r	0r	0r	.	0r	.	8ee\	.	8ee\	.
.	.	.	.	4ff#\	.	4ff#\	.	.	.	.	.	.	.	4ff#\	.	4ff#\	.
4c#\	.	4r	.	.	.	.	.	.	.	.	.	.	.	.	.	.	.
.	.	.	.	4een\	.	4een\	.	.	.	.	.	.	.	4.een\	.	4een\	.
4B\	.	4f#\	.	.	.	.	.	.	.	.	.	.	.	.	.	.	.
.	.	.	.	4dd\	.	4dd\	.	.	.	.	.	.	.	.	.	4dd\	.
!	!	!	!	!	!	!	!	!	!	!	!	!	!	!LO:N:vis=4	!	!	!
4A#X\	.	4r	.	.	.	.	.	.	.	.	.	.	.	8dd\	.	.	.
.	.	.	.	8cc#\	.	8cc#\	.	.	.	.	.	.	.	8cc#\	.	8cc#\	.
!	!	!	!	!	!	!LO:LB:g=original	!	!	!	!	!	!	!	!	!	!	!
=23	=23	=23	=23	=23	=23	=23	=23	=23	=23	=23	=23	=23	=23	=23	=23	=23	=23
4B\	.	4f#\	.	8cc#\	.	8cc#\	.	.	.	.	.	.	.	8cc#\	.	8cc#\	.
.	.	.	.	4dd\	.	4dd\	.	.	.	.	.	.	.	4dd\	.	4dd\	.
4An\	.	4r	.	.	.	.	.	.	.	.	.	.	.	.	.	.	.
.	.	.	.	4cc#\	.	4cc#\	.	.	.	.	.	.	.	4cc#\	.	4cc#\	.
4G#X\	.	4g#X\	.	.	.	.	.	.	.	.	.	.	.	.	.	.	.
.	.	.	.	4b\	.	4b\	.	.	.	.	.	.	.	4b\	.	4b\	.
4F#\	.	4d#X\	.	.	.	.	.	.	.	.	.	.	.	.	.	.	.
.	.	.	.	8a\	.	8a\	.	.	.	.	.	.	.	8a/	.	8a\	.
=24	=24	=24	=24	=24	=24	=24	=24	=24	=24	=24	=24	=24	=24	=24	=24	=24	=24
*tremolo	*	*tremolo	*	*	*	*	*	*	*	*	*	*	*	*	*	*	*
!	!LO:DY:b:t=%s:rj	!	!	!	!	!	!	!	!	!	!	!	!	!	!	!	!
8E\L	f	8e\L	.	8g#X/L	.	4g#X/	.	4r	4r	4e\	.	4e\	.	4g#X/	.	4g#X/	.
8E\	.	8e\	.	16b/L	.	.	.	.	.	.	.	.	.	.	.	.	.
.	.	.	.	16cc#/JJ	.	.	.	.	.	.	.	.	.	.	.	.	.
8E\	.	8e\	.	8dd\L	.	4gg#X 4b 4e/	.	4ee\	4ee\	8r	.	8r	.	4b/	.	4gg#X\	.
8E\J	.	8e\J	.	16cc#\L	.	.	.	.	.	8e\	.	8e\	.	.	.	.	.
.	.	.	.	16b\JJ	.	.	.	.	.	.	.	.	.	.	.	.	.
!	!	!LO:LB:g=original	!	!	!	!	!	!	!	!	!	!	!	!	!	!	!
*	*	*	*	*	*	*	*	*	*	*tremolo	*	*tremolo	*	*	*	*	*
8E\L	.	8e\L	.	4cc#\	.	8aaL 8cc# 8e/	.	4ee\	4ee\	8e\L	.	8e\L	.	4cc#/	.	4aa\	.
8E\	.	8e\	.	.	.	16a/L	.	.	.	8e\	.	8e\	.	.	.	.	.
.	.	.	.	.	.	16b/JJ	.	.	.	.	.	.	.	.	.	.	.
.	.	.	.	.	.	8qqdd/	.	.	.	.	.	.	.	.	.	.	.
8E\	.	8e\	.	4aa 4cc# 4e/	.	8cc#/L	.	4r	4r	8e\	.	8e\	.	4a/	.	4cc#\	.
8E\J	.	8e\J	.	.	.	16b/L	.	.	.	8e\J	.	8e\J	.	.	.	.	.
.	.	.	.	.	.	16a/JJ	.	.	.	.	.	.	.	.	.	.	.
*	*	*	*	*	*	*	*	*	*	*Xtremolo	*	*Xtremolo	*	*	*	*	*
!	!	!	!	!	!	!	!	!	!	!	!	!	!	!	!	!LO:LB:g=original	!
!	!	!	!	!LO:LB:g=original	!	!	!	!	!	!	!	!	!	!	!	!	!
=25	=25	=25	=25	=25	=25	=25	=25	=25	=25	=25	=25	=25	=25	=25	=25	=25	=25
!	!	!	!	!LO:SIC:n=1:s=8gg#:v	!	!	!	!	!	!	!	!	!	!	!	!	!
8E\L	.	8e\L	.	8ggL 8b 8d/	.	4ee\	.	4r	4r	4e\	.	4e\	.	4g#X/	.	4b\	.
8E\	.	8e\	.	16b/L	.	.	.	.	.	.	.	.	.	.	.	.	.
.	.	.	.	16cc#/JJ	.	.	.	.	.	.	.	.	.	.	.	.	.
.	.	.	.	8qqee/	.	.	.	.	.	.	.	.	.	.	.	.	.
8E\	.	8e\	.	8dd\L	.	4gg#X 4b 4e/	.	4ee\	4ee\	8r	.	8r	.	4b/	.	4gg#X\	.
8E\J	.	8e\J	.	16cc#\L	.	.	.	.	.	8e\	.	8e\	.	.	.	.	.
.	.	.	.	16b\JJ	.	.	.	.	.	.	.	.	.	.	.	.	.
*	*	*	*	*	*	*	*	*	*	*tremolo	*	*tremolo	*	*	*	*	*
8E\L	.	8e\L	.	4cc#\	.	8aaL 8cc# 8e/	.	4ee\	4ee\	8e\L	.	8e\L	.	4cc#/	.	4aa\	.
8E\	.	8e\	.	.	.	16a/L	.	.	.	8e\	.	8e\	.	.	.	.	.
.	.	.	.	.	.	16b/JJ	.	.	.	.	.	.	.	.	.	.	.
.	.	.	.	.	.	8qqdd/	.	.	.	.	.	.	.	.	.	.	.
8E\	.	8e\	.	4aa 4cc# 4e/	.	8cc#/L	.	4r	4r	8e\	.	8e\	.	4a/	.	4cc#\	.
8E\J	.	8e\J	.	.	.	16b/L	.	.	.	8e\J	.	8e\J	.	.	.	.	.
.	.	.	.	.	.	16a/JJ	.	.	.	.	.	.	.	.	.	.	.
*	*	*	*	*	*	*	*	*	*	*Xtremolo	*	*Xtremolo	*	*	*	*	*
!	!	!	!	!	!	!	!	!	!	!	!	!	!	!LO:LB:g=original	!	!	!
=26	=26	=26	=26	=26	=26	=26	=26	=26	=26	=26	=26	=26	=26	=26	=26	=26	=26
8E\L	.	8e\L	.	4gg#X 4b 4e/	.	4ee 4b 4e/	.	4r	4r	4e\	.	4e\	.	4g#X/	.	4b\	.
8E\	.	8e\	.	.	.	.	.	.	.	.	.	.	.	.	.	.	.
8E\	.	8e\	.	4ee 4b 4e/	.	4gg#X 4b 4e/	.	4ee\	4ee\	4e\	.	4e\	.	4g#/	.	4dd\	.
8E\J	.	8e\J	.	.	.	.	.	.	.	.	.	.	.	.	.	.	.
*Xtremolo	*	*Xtremolo	*	*	*	*	*	*	*	*	*	*	*	*	*	*	*
4E\	.	4e\	.	4ee 4b 4e/	.	4ee 4b 4e/	.	4ee\	4ee\	4e\	.	4e\	.	4g#/	.	4dd\	.
4r	.	4r	.	4r	.	4r	.	4r	4r	4r	.	4r	.	4r	.	4r	.
!LO:LB:g=original	!	!	!	!	!	!	!	!	!	!	!	!	!	!	!	!	!
=27	=27	=27	=27	=27	=27	=27	=27	=27	=27	=27	=27	=27	=27	=27	=27	=27	=27
!	!	!	!LO:DY:b:rj	!	!	!	!	!LO:TX:a:t=3	!LO:TX:a:t=2	!LO:TX:a:t=3	!	!LO:TX:a:t=3	!	!	!	!LO:TX:a:t=1	!
4AA/	.	8A/L	p	4r	.	4r	p	0r	0r	0r	.	0r	.	1r	.	1r	.
.	.	8A/	.	.	.	.	.	.	.	.	.	.	.	.	.	.	.
4r	.	8A/	.	8r	p	8r	.	.	.	.	.	.	.	.	.	.	.
.	.	8A/J	.	16cc#\LL	.	(>16ee\LL	.	.	.	.	.	.	.	.	.	.	.
.	.	.	.	16b\JJ	.	16dd\JJ)	.	.	.	.	.	.	.	.	.	.	.
*	*	*tremolo	*	*	*	*	*	*	*	*	*	*	*	*	*	*	*
2r	.	8A/L	.	8a`>\L	.	8cc#`>\L	.	.	.	.	.	.	.	.	.	.	.
.	.	8A/	.	8b`>\	.	8dd`>\	.	.	.	.	.	.	.	.	.	.	.
.	.	8A/	.	8cc#`>\	.	8ee`>\	.	.	.	.	.	.	.	.	.	.	.
.	.	8A/J	.	8a`>\J	.	8cc#`>\J	.	.	.	.	.	.	.	.	.	.	.
=28	=28	=28	=28	=28	=28	=28	=28	=28	=28	=28	=28	=28	=28	=28	=28	=28	=28
!LO:TX:a:t=2	!	!	!	!	!	!	!	!	!	!	!	!	!	!	!	!	!
0r	.	8A/L	.	8dd\L	.	(>8ff#\L	.	.	.	.	.	.	.	(>8dd\L	p	(>8ff#\L	p
.	.	8A/	.	8b\J	.	8dd\J)	.	.	.	.	.	.	.	8b\J)	.	8dd\J)	.
.	.	8A/	.	8r	.	8r	.	.	.	.	.	.	.	4r	.	4r	.
.	.	8A/J	.	16b/LL	.	16dd\LL	.	.	.	.	.	.	.	.	.	.	.
.	.	.	.	16a/JJ	.	16cc#\JJ	.	.	.	.	.	.	.	.	.	.	.
!	!	!	!	!	!	!LO:LB:g=original	!	!	!	!	!	!	!	!	!	!	!
.	.	8A/L	.	8g#X/L	.	8b`>\L	.	.	.	.	.	.	.	2r	.	2r	.
.	.	8A/	.	8a/	.	8cc#`>\	.	.	.	.	.	.	.	.	.	.	.
.	.	8A/	.	8b/	.	8dd`>\	.	.	.	.	.	.	.	.	.	.	.
.	.	8A/J	.	8g#/J	.	8b`>\J	.	.	.	.	.	.	.	.	.	.	.
=29	=29	=29	=29	=29	=29	=29	=29	=29	=29	=29	=29	=29	=29	=29	=29	=29	=29
.	.	8A/L	.	8cc#\L	.	(>8ee\L	.	1r	4r	1r	.	1r	.	(>8cc#\L	.	(>8ee\L	.
.	.	8A/	.	8a\J	.	8cc#\J)	.	.	.	.	.	.	.	8a\J)	.	8cc#\J)	.
.	.	8A/	.	8r	.	8r	.	.	4ff#\	.	.	.	.	4r	.	4r	.
.	.	8A/J	.	16e/LL	.	16cc#\LL	.	.	.	.	.	.	.	.	.	.	.
.	.	.	.	16d/JJ	.	16b\JJ	.	.	.	.	.	.	.	.	.	.	.
.	.	8A/L	.	8c#/L	.	8a`>\L	.	.	4ee\	.	.	.	.	2r	.	2r	.
.	.	8A/	.	8d/	.	8b`>\	.	.	.	.	.	.	.	.	.	.	.
.	.	8A/	.	8e/	.	8cc#`>\	.	.	4ee\	.	.	.	.	.	.	.	.
.	.	8A/J	.	8c#/J	.	8g`>\J	.	.	.	.	.	.	.	.	.	.	.
=30	=30	=30	=30	=30	=30	=30	=30	=30	=30	=30	=30	=30	=30	=30	=30	=30	=30
!	!	!	!LO:DY:b:rj	!	!	!	!LO:DY:b:rj	!	!	!	!	!	!	!	!	!	!
8r	.	8d\L	f	4dd 4d/	f	4ff# 4a 4d/	f	4r	4ee\	4r	.	4r	.	4r	.	4r	.
8D\L	.	8d\	.	.	.	.	.	.	.	.	.	.	.	.	.	.	.
8D\	.	8d\	.	16ff#\LL	.	16aa\LL	.	4dd\	4r	4f#\	.	4f#\	.	8dd\L	f	8ff#\L	f
.	.	.	.	16dd\	.	16ff#\	.	.	.	.	.	.	.	.	.	.	.
8D\J	.	8d\J	.	16ff#\	.	16aa\	.	.	.	.	.	.	.	8dd\J	.	8ff#\J	.
.	.	.	.	16dd\JJ	.	16ff#\JJ	.	.	.	.	.	.	.	.	.	.	.
!	!	!	!	!LO:LB:g=original	!	!	!	!	!	!	!	!	!	!	!	!	!
4E\	.	8e\L	.	8cc#/L	.	8ee\L	.	4ee\	2r	4e\	.	4e\	.	8cc#\L	.	8ee\L	.
.	.	8e\	.	8b/	.	8dd\	.	.	.	.	.	.	.	8b\	.	8dd\	.
4EE/	.	8e\	.	8a/	.	8cc#\	.	4ee\	.	4e\	.	4e\	.	8a\	.	8cc#\	.
.	.	8e\J	.	8g#X/J	.	8b\J	.	.	.	.	.	.	.	8g#X\J	.	8b\J	.
*	*	*Xtremolo	*	*	*	*	*	*	*	*	*	*	*	*	*	*	*
!	!	!	!	!	!	!	!	!	!	!	!	!LO:LB:g=original	!	!	!	!	!
=31	=31	=31	=31	=31	=31	=31	=31	=31	=31	=31	=31	=31	=31	=31	=31	=31	=31
4AA/	.	4A/	.	4a/	.	4.a/	.	4a/	4a/	4A/	.	4e\	.	4a/	.	4a/	.
8r	.	8r	.	8r	.	.	.	4r	4r	4r	.	4r	.	8r	.	8r	.
16E\LL	.	16e\LL	.	16e/LL	.	16e/LL	.	.	.	.	.	.	.	16ee\LL	.	16ee\LL	.
16D\JJ	.	16d\JJ	.	16d/JJ	.	16d/JJ	.	.	.	.	.	.	.	16dd\JJ	.	16dd\JJ	.
!	!	!	!	!	!	!	!	!	!	!LO:LB:g=original	!	!	!	!	!	!	!
8C#/L	.	8c#\L	.	8c#/L	.	8c#/L	.	2r	2r	4r	.	4r	.	8cc#\L	.	8cc#\L	.
8D/	.	8d\	.	8d/	.	8d/	.	.	.	.	.	.	.	8dd\	.	8dd\	.
8E/	.	8e\	.	8e/	.	8e/	.	.	.	8e\L	.	8e\L	.	8ee\	.	8ee\	.
8C#/J	.	8c#\J	.	8c#/J	.	8c#/J	.	.	.	8e\J	.	8e\J	.	8cc#\J	.	8cc#\J	.
!	!	!	!	!	!	!	!	!	!LO:LB:g=original	!	!	!	!	!	!	!	!
=32	=32	=32	=32	=32	=32	=32	=32	=32	=32	=32	=32	=32	=32	=32	=32	=32	=32
*	*	*tremolo	*	*	*	*	*	*	*	*	*	*	*	*	*	*	*
!	!	!	!	!	!	!	!	!	!LO:TX:a:t=2	!	!	!	!	!	!	!	!
!	!	!	!LO:DY:b:t=%s:rj	!	!	!	!	!	!	!	!LO:DY:b:t=%s:rj	!	!	!	!	!	!
4AA/	.	8A/L	f	4A/	.	4A/	.	4a/	0r	[>1A	f	[>1A	f	4a/	.	4a/	.
.	.	8A/	.	.	.	.	.	.	.	.	.	.	.	.	.	.	.
!	!	!	!LO:DY:b:t=%s:rj	!	!	!	!	!	!	!	!	!	!	!	!	!	!
4r	.	8A/	p	8r	.	8r	.	4r	.	.	p	.	p	4r	.	4r	.
!	!	!	!	!	!	!	!LO:DY:b:t=%sno	!	!	!	!	!	!	!	!	!	!
.	.	8A/J	.	16cc#\LL	.	(>16ee\LL	p	.	.	.	.	.	.	.	.	.	.
.	.	.	.	16b\JJ	.	16dd\JJ)	.	.	.	.	.	.	.	.	.	.	.
2r	.	8A/L	.	8a`>\L	.	8cc#`>\L	.	2r	.	.	.	.	.	2r	.	2r	.
.	.	8A/	.	8b`>\	.	8dd`>\	.	.	.	.	.	.	.	.	.	.	.
.	.	8A/	.	8cc#`>\	.	8ee`>\	.	.	.	.	.	.	.	.	.	.	.
.	.	8A/J	.	8a`>\J	.	8cc#`>\J	.	.	.	.	.	.	.	.	.	.	.
!	!	!LO:LB:g=original	!	!	!	!	!	!	!	!	!	!	!	!	!	!	!
=33	=33	=33	=33	=33	=33	=33	=33	=33	=33	=33	=33	=33	=33	=33	=33	=33	=33
!	!	!	!	!	!	!	!	!	!	!	!	!	!	!	!LO:DY:b:rj	!	!LO:DY:b:t=%s:rj
0r	.	8A/L	.	8dd\L	.	(>8ff#\L	.	0r	.	1A_>	.	1A_>	.	(>8dd\L	p	(>8ff#\L	p
.	.	8A/	.	8b\J	.	8dd\J)	.	.	.	.	.	.	.	8b\J)	.	8dd\J)	.
.	.	8A/	.	8r	.	8r	.	.	.	.	.	.	.	4r	.	4r	.
.	.	8A/J	.	16b/LL	.	(>16dd\LL	.	.	.	.	.	.	.	.	.	.	.
.	.	.	.	16a/JJ	.	16cc#\JJ)	.	.	.	.	.	.	.	.	.	.	.
.	.	8A/L	.	8g#X/L	.	8dd`>\L	.	.	.	.	.	.	.	2r	.	2r	.
.	.	8A/	.	8a/	.	8ee`>\	.	.	.	.	.	.	.	.	.	.	.
.	.	8A/	.	8b/	.	8ff#`>\	.	.	.	.	.	.	.	.	.	.	.
.	.	8A/J	.	8g#/J	.	8dd`>\J	.	.	.	.	.	.	.	.	.	.	.
!	!	!	!	!	!	!LO:LB:g=original	!	!	!	!	!	!	!	!	!	!	!
=34	=34	=34	=34	=34	=34	=34	=34	=34	=34	=34	=34	=34	=34	=34	=34	=34	=34
!	!	!	!	!	!	!	!	!	!LO:TX:a:t=P:problem=pominięty fragment	!	!	!	!	!	!	!	!
.	.	8A/L	.	8cc#\L	.	(>8ee\L	.	.	1ryy	1A_>	.	1A_>	.	8cc#\L	.	(>8ee\L	.
.	.	8A/	.	8a\J	.	8cc#\J)	.	.	.	.	.	.	.	8a\J	.	8cc#\J)	.
.	.	8A/	.	8r	.	8r	.	.	.	.	.	.	.	4r	.	4r	.
.	.	8A/J	.	16e/LL	.	16cc#\LL	.	.	.	.	.	.	.	.	.	.	.
.	.	.	.	16d/JJ	.	16b\JJ	.	.	.	.	.	.	.	.	.	.	.
.	.	8A/L	.	8c#/L	.	8a`>\L	.	.	.	.	.	.	.	2r	.	2r	.
.	.	8A/	.	8d/	.	8b`>\	.	.	.	.	.	.	.	.	.	.	.
.	.	8A/	.	8e/	.	8cc#`>\	.	.	.	.	.	.	.	.	.	.	.
.	.	8A/J	.	8c#/J	f	8a`>\J	.	.	.	.	.	.	.	.	.	.	.
!	!	!	!	!	!	!	!	!	!	!	!	!	!	!	!	!LO:LB:g=original	!
=35	=35	=35	=35	=35	=35	=35	=35	=35	=35	=35	=35	=35	=35	=35	=35	=35	=35
!	!	!	!LO:DY:b:rj	!	!	!	!	!	!	!	!	!	!	!	!	!	!
8r	.	8d\L	f	4a 4d/	.	4ff# 4a 4d/	f	4r	4r	4A/]	.	4A/]	.	4r	.	4r	.
8D\L	.	8d\	.	.	.	.	.	.	.	.	.	.	.	.	.	.	.
8D\	.	8d\	.	16ff#\LL	.	16aa\LL	.	4dd\	4ff#\	4d\	.	4f#\	.	8dd\L	f	8ff#\L	.
.	.	.	.	16dd\	.	16ff#\	.	.	.	.	.	.	.	.	.	.	.
8D\J	.	8d\J	.	16ff#\	.	16aa\	.	.	.	.	.	.	.	8dd\J	.	8ff#\J	.
.	.	.	.	16dd\JJ	.	16ff#\JJ	.	.	.	.	.	.	.	.	.	.	.
!	!	!	!	!LO:LB:g=original	!	!	!	!	!	!	!	!	!	!	!	!	!
4E\	.	8e\L	.	8cc#/L	.	8ee\L	.	4ee\	4ee\	4e\	.	4e\	.	8cc#\L	.	8ee\L	.
.	.	8e\	.	8b/	.	8dd\	.	.	.	.	.	.	.	8b\	.	8dd\	.
4EE/	.	8e\	.	8a/	.	8cc#\	.	4ee\	4ee\	4e\	.	4e\	.	8a\	.	8cc#\	.
.	.	8e\J	.	8g#X/J	.	8b\J	.	.	.	.	.	.	.	8g#X\J	.	8b\J	.
!	!	!	!	!	!	!	!	!	!	!	!	!	!	!LO:LB:g=original	!	!	!
!	!	!	!	!	!	!	!	!LO:LB:g=original	!	!	!	!	!	!	!	!	!
*	*	*Xtremolo	*	*	*	*	*	*	*	*	*	*	*	*	*	*	*
=36	=36	=36	=36	=36	=36	=36	=36	=36	=36	=36	=36	=36	=36	=36	=36	=36	=36
4AA/	.	4a\	.	16a\LL	.	4a/	.	4a/	4ee\	4A/	.	4e\	.	4a/	.	4a/	.
.	.	.	.	16ee\	.	.	.	.	.	.	.	.	.	.	.	.	.
.	.	.	.	16ee\	.	.	.	.	.	.	.	.	.	.	.	.	.
.	.	.	.	16ee\JJ	.	.	.	.	.	.	.	.	.	.	.	.	.
*	*	*	*	*tremolo	*	*	*	*	*	*	*	*	*	*	*	*	*
8r	.	8r	.	16ee\LL	.	8r	.	4r	4r	8r	.	4r	.	8r	.	8r	.
.	.	.	.	16ee\	.	.	.	.	.	.	.	.	.	.	.	.	.
8d\	.	8b\	.	16ee\	.	8gg#X\	.	.	.	4r	.	.	.	8ee\	.	8gg#X\	.
.	.	.	.	16ee\JJ	.	.	.	.	.	.	.	.	.	.	.	.	.
*	*	*	*	*	*	*	*	*	*	*	*	*	*	*tremolo	*	*	*
8c#\L	.	8a\L	.	16ee\LL	.	8aa\L	.	2r	2r	.	.	8r	.	8ee\L	.	8aa\L	.
.	.	.	.	16ee\	.	.	.	.	.	.	.	.	.	.	.	.	.
8B\	.	8g#X\	.	16ee\	.	8bb\	.	.	.	8e\L	.	8e\L	.	8ee\	.	8bb\	.
.	.	.	.	16ee\	.	.	.	.	.	.	.	.	.	.	.	.	.
8A\	.	8a\	.	16ee\	.	8ccc#\	.	.	.	8e\	.	8e\	.	8ee\	.	8ccc#\	.
.	.	.	.	16ee\	.	.	.	.	.	.	.	.	.	.	.	.	.
8G#X\J	.	8b\J	.	16ee\	.	8ddd\J	.	.	.	8e\J	.	8e\J	.	8ee\J	.	8ddd\J	.
.	.	.	.	16ee\JJ	.	.	.	.	.	.	.	.	.	.	.	.	.
*	*	*	*	*	*	*	*	*	*	*	*	*	*	*Xtremolo	*	*	*
=37	=37	=37	=37	=37	=37	=37	=37	=37	=37	=37	=37	=37	=37	=37	=37	=37	=37
4A\	.	(>32a\LLL	.	16ee\LL	.	32ccc#\LLL	.	4a/	4ee\	4e\	.	4e\	.	4ee\	.	32ccc#\LLL	.
.	.	32b\JJ)	.	.	.	32bb\JJ	.	.	.	.	.	.	.	.	.	32bb\JJ	.
.	.	8.cc#\J	.	16ee\	.	8.aa\J	.	.	.	.	.	.	.	.	.	8.aa\J	.
.	.	.	.	16ee\	.	.	.	.	.	.	.	.	.	.	.	.	.
.	.	.	.	16ee\	.	.	.	.	.	.	.	.	.	.	.	.	.
8r	.	8r	.	16ee\	.	8r	.	4r	4r	4r	.	4r	.	8r	.	8r	.
.	.	.	.	16ee\	.	.	.	.	.	.	.	.	.	.	.	.	.
8d\	.	8b\	.	16ee\	.	8gg#X\	.	.	.	.	.	.	.	8ee\	.	8gg#X\	.
.	.	.	.	16ee\JJ	.	.	.	.	.	.	.	.	.	.	.	.	.
*	*	*	*	*	*	*	*	*	*	*	*	*	*	*tremolo	*	*	*
8c#\L	.	8a\L	.	16ee\LL	.	8aa\L	.	2r	2r	8r	.	8r	.	8ee\L	.	8aa\L	.
.	.	.	.	16ee\	.	.	.	.	.	.	.	.	.	.	.	.	.
8B\	.	8g#X\	.	16ee\	.	8bb\	.	.	.	8e\L	.	8e\L	.	8ee\	.	8bb\	.
.	.	.	.	16ee\	.	.	.	.	.	.	.	.	.	.	.	.	.
8A\	.	8a\	.	16ee\	.	8ccc#\	.	.	.	8e\	.	8e\	.	8ee\	.	8ccc#\	.
.	.	.	.	16ee\	.	.	.	.	.	.	.	.	.	.	.	.	.
8G#X\J	.	8b\J	.	16ee\	.	8ddd\J	.	.	.	8e\J	.	8e\J	.	8ee\J	.	8ddd\J	.
.	.	.	.	16ee\JJ	.	.	.	.	.	.	.	.	.	.	.	.	.
*	*	*	*	*	*	*	*	*	*	*	*	*	*	*Xtremolo	*	*	*
=38	=38	=38	=38	=38	=38	=38	=38	=38	=38	=38	=38	=38	=38	=38	=38	=38	=38
4A\	.	(>32a\LLL	.	16ee\LL	.	32ccc#\LLL	.	4a/	4ee\	4e\	.	4e\	.	4ee\	.	32ccc#\LLL	.
.	.	32b\JJ)	.	.	.	32bb\JJ	.	.	.	.	.	.	.	.	.	32bb\JJ	.
.	.	8.cc#\J	.	16ee\	.	8.aa\J	.	.	.	.	.	.	.	.	.	8.aa\J	.
.	.	.	.	16ee\	.	.	.	.	.	.	.	.	.	.	.	.	.
.	.	.	.	16ee\	.	.	.	.	.	.	.	.	.	.	.	.	.
8r	.	8r	.	16ee\	.	8r	.	4r	4r	4r	.	4r	.	8r	.	8r	.
.	.	.	.	16ee\	.	.	.	.	.	.	.	.	.	.	.	.	.
8d\	.	8b\	.	16ee\	.	8gg#X\	.	.	.	.	.	.	.	8ee\	.	8gg#X\	.
.	.	.	.	16ee\JJ	.	.	.	.	.	.	.	.	.	.	.	.	.
!LO:LB:g=original	!	!	!	!	!	!	!	!	!	!	!	!	!	!	!	!	!
*	*	*	*	*	*	*	*	*	*	*	*	*	*	*tremolo	*	*	*
8c#\L	.	8a\L	.	16ee\LL	.	8aa\L	.	2r	2r	8r	.	8r	.	8ee\L	.	8aa\L	.
.	.	.	.	16ee\	.	.	.	.	.	.	.	.	.	.	.	.	.
8B\	.	8g#X\	.	16ee\	.	8bb\	.	.	.	8e\L	.	8e\L	.	8ee\	.	8bb\	.
.	.	.	.	16ee\	.	.	.	.	.	.	.	.	.	.	.	.	.
8A\	.	8a\	.	16ee\	.	8ccc#\	.	.	.	8e\	.	8e\	.	8ee\	.	8ccc#\	.
.	.	.	.	16ee\	.	.	.	.	.	.	.	.	.	.	.	.	.
8G#X\J	.	8b\J	.	16ee\	.	8ddd\J	.	.	.	8e\J	.	8e\J	.	8ee\J	.	8ddd\J	.
.	.	.	.	16ee\JJ	.	.	.	.	.	.	.	.	.	.	.	.	.
*	*	*	*	*Xtremolo	*	*	*	*	*	*	*	*	*	*Xtremolo	*	*	*
!	!	!	!	!	!	!LO:LB:g=original	!	!	!	!	!	!	!	!	!	!	!
=39	=39	=39	=39	=39	=39	=39	=39	=39	=39	=39	=39	=39	=39	=39	=39	=39	=39
4A\	.	4a\	.	8dd\	.	8ccc#\	.	4r	4r	4e\	.	4e\	.	[>1aa	.	[>1ccc#	.
.	.	.	.	4aa\	.	4ccc#\	.	.	.	.	.	.	.	.	.	.	.
8r	.	8r	.	.	.	.	.	4a/	4aa\	4r	.	4r	.	.	.	.	.
8A\	.	8a\	.	4aa\	.	4ccc#\	.	.	.	.	.	.	.	.	.	.	.
8F#\L	.	8f#\L	.	.	.	.	.	4a/	4aa\	4f#\	.	4f#\	.	.	.	.	.
8A\	.	8a\	.	4aa\	.	4ccc#\	.	.	.	.	.	.	.	.	.	.	.
8C#\	.	8d\	.	.	.	.	.	4a/	4aa\	4r	.	4r	.	.	.	.	.
8D#X\J	.	8d#X\J	.	8aa\	.	8ccc#\	.	.	.	.	.	.	.	.	.	.	.
!	!	!LO:LB:g=original	!	!	!	!	!	!	!	!	!	!	!	!	!	!	!
=40	=40	=40	=40	=40	=40	=40	=40	=40	=40	=40	=40	=40	=40	=40	=40	=40	=40
2.E\	.	2.e\	.	4aa\	.	4ccc#\	.	1ee	1ee	1e	.	1e	.	4aa\]	.	4ccc#\]	.
.	.	.	.	8gg#X\L	.	8bb\L	.	.	.	.	.	.	.	8gg#X\L	.	8bb\L	.
.	.	.	.	8ff#\J	.	8aa\J	.	.	.	.	.	.	.	8ff#\J	.	8aa\J	.
.	.	.	.	8ee\L	.	8gg#X\L	.	.	.	.	.	.	.	8ee\L	.	8gg#X\L	.
.	.	.	.	8dd\	.	8ff#\	.	.	.	.	.	.	.	8dd\	.	8ff#\	.
4E\	.	4e\	.	8cc#\	.	8ee\	.	.	.	.	.	.	.	8cc#\	.	8ee\	.
.	.	.	.	8b\J	.	8dd\J	.	.	.	.	.	.	.	8b\J	.	8dd\J	.
!	!	!	!	!	!	!	!	!	!	!	!	!	!	!	!	!LO:LB:g=original	!
=41	=41	=41	=41	=41	=41	=41	=41	=41	=41	=41	=41	=41	=41	=41	=41	=41	=41
*	*	*	*	*tremolo	*	*	*	*	*	*	*	*	*	*	*	*	*
4F#\	.	4f#\	.	16a/LL	.	8.cc#\L	.	4a/	4ee\	4A/	.	4e\	.	4a/	.	8.cc#\L	.
.	.	.	.	16a/	.	.	.	.	.	.	.	.	.	.	.	.	.
.	.	.	.	16a/	.	.	.	.	.	.	.	.	.	.	.	.	.
.	.	.	.	16a/	.	32b\LL	.	.	.	.	.	.	.	.	.	32b\LL	.
.	.	.	.	.	.	32cc#\JJJ	.	.	.	.	.	.	.	.	.	32cc#\JJJ	.
4D\	.	4d\	.	16a/	.	8dd\L	.	4dd\	4ff#\	4d\	.	4f#\	.	2a/	.	8dd\L	.
.	.	.	.	16a/	.	.	.	.	.	.	.	.	.	.	.	.	.
.	.	.	.	16a/	.	8ee\J	.	.	.	.	.	.	.	.	.	8ff#\J	.
.	.	.	.	16a/JJ	.	.	.	.	.	.	.	.	.	.	.	.	.
4E\	.	4e\	.	16a/LL	.	4e/	.	4ee\	4ee\	4e\	.	4e\	.	.	.	4e/	.
.	.	.	.	16a/	.	.	.	.	.	.	.	.	.	.	.	.	.
.	.	.	.	16a/	.	.	.	.	.	.	.	.	.	.	.	.	.
.	.	.	.	16a/JJ	.	.	.	.	.	.	.	.	.	.	.	.	.
4EE/	.	4E/	.	16g#X/LL	.	4bT>\	.	4ee\	4ee\	4e\	.	4e\	.	4g#X/	.	4bT>/	.
.	.	.	.	16g#X/	.	.	.	.	.	.	.	.	.	.	.	.	.
.	.	.	.	16g#X/	.	.	.	.	.	.	.	.	.	.	.	.	.
.	.	.	.	16g#X/JJ	.	.	.	.	.	.	.	.	.	.	.	.	.
*	*	*	*	*Xtremolo	*	*	*	*	*	*	*	*	*	*	*	*	*
=42	=42	=42	=42	=42	=42	=42	=42	=42	=42	=42	=42	=42	=42	=42	=42	=42	=42
!	!	!	!	!	!LO:DY:b:rj	!	!	!	!	!	!	!	!	!	!	!	!
4AA/	.	4A/	.	8a/L	p	8a/	.	4a/	4ee\	4A/	.	4e\	.	4a/	.	4a/	.
.	.	.	.	16A/L	.	8r	p	.	.	.	.	.	.	.	.	.	.
.	.	.	.	16A/JJ	.	.	.	.	.	.	.	.	.	.	.	.	.
!	!	!	!	!LO:LB:g=original	!	!	!	!	!	!	!	!	!	!	!	!	!
4r	.	4r	.	8c#/L	.	8ee\	.	4r	4r	4r	.	4r	.	4r	.	4r	.
.	.	.	.	8A/J	.	8r	.	.	.	.	.	.	.	.	.	.	.
2r	.	2r	.	8d/L	.	8ff#\	.	2r	2r	2r	.	2r	.	2r	.	2r	.
.	.	.	.	8B/	.	8r	.	.	.	.	.	.	.	.	.	.	.
.	.	.	.	8e/	.	8gg#X\	.	.	.	.	.	.	.	.	.	.	.
.	.	.	.	8d/J	.	8r	.	.	.	.	.	.	.	.	.	.	.
=43	=43	=43	=43	=43	=43	=43	=43	=43	=43	=43	=43	=43	=43	=43	=43	=43	=43
*	*	*	*	*tremolo	*	*	*	*	*	*	*	*	*	*	*	*	*
!	!	!	!	!	!LO:DY:b:rj	!	!	!	!	!	!	!	!	!	!	!	!
8r	.	8r	.	16c#/LL	f	8aa\	.	4r	4r	4r	.	4r	.	4r	.	4r	.
.	.	.	.	16c#/	.	.	.	.	.	.	.	.	.	.	.	.	.
16AA/LL	.	16A/LL	.	16c#/	.	8r	.	.	.	.	.	.	.	.	.	.	.
16BB/JJ	.	16B/JJ	.	16c#/JJ	.	.	.	.	.	.	.	.	.	.	.	.	.
8C#/L	.	8c#/L	.	16a/LL	.	4ee 4e/	f	4a/	4aa\	4A/	.	4e\	.	4ee\	.	4aa\	.
.	.	.	.	16a/	.	.	.	.	.	.	.	.	.	.	.	.	.
8AA/J	.	8A/J	.	16a/	.	.	.	.	.	.	.	.	.	.	.	.	.
.	.	.	.	16a/JJ	.	.	.	.	.	.	.	.	.	.	.	.	.
8D/L	.	8d/L	.	16b/LL	.	4dd 4f#/	.	4dd\	4ff#\	4d\	.	4f#\	.	4dd\	.	4ff#\	.
.	.	.	.	16b/	.	.	.	.	.	.	.	.	.	.	.	.	.
8BB/	.	8B/	.	16b/	.	.	.	.	.	.	.	.	.	.	.	.	.
.	.	.	.	16b/JJ	.	.	.	.	.	.	.	.	.	.	.	.	.
8E/	.	8e/	.	16g#X/LL	.	4b 4e/	.	4ee\	4ee\	4e\	.	4e\	.	4b\	.	4gg#X\	.
.	.	.	.	16g#X/	.	.	.	.	.	.	.	.	.	.	.	.	.
8EE/J	.	8E/J	.	16g#X/	.	.	.	.	.	.	.	.	.	.	.	.	.
.	.	.	.	16g#X/JJ	.	.	.	.	.	.	.	.	.	.	.	.	.
*	*	*	*	*Xtremolo	*	*	*	*	*	*	*	*	*	*	*	*	*
=44	=44	=44	=44	=44	=44	=44	=44	=44	=44	=44	=44	=44	=44	=44	=44	=44	=44
4AA/	.	4A/	.	8a/L	p	4cc# 4e/	.	4a/	4ee\	4A/	.	4e\	.	4cc#\	.	4aa\	.
.	.	.	.	16A/L	.	.	.	.	.	.	.	.	.	.	.	.	.
.	.	.	.	16B/JJ	.	.	.	.	.	.	.	.	.	.	.	.	.
4r	.	4r	.	8c#/L	.	8ee\	p	4r	4r	4r	.	4r	.	4r	.	4r	.
.	.	.	.	8A/J	.	8r	.	.	.	.	.	.	.	.	.	.	.
2r	.	2r	.	8d/L	.	8ff#\	.	2r	2r	2r	.	2r	.	2r	.	2r	.
.	.	.	.	8B/	.	8r	.	.	.	.	.	.	.	.	.	.	.
.	.	.	.	8e/	.	8gg#X\	.	.	.	.	.	.	.	.	.	.	.
.	.	.	.	8d/J	.	8r	.	.	.	.	.	.	.	.	.	.	.
!	!	!	!	!	!	!	!	!	!	!	!	!LO:LB:g=original	!	!	!	!	!
!	!	!	!	!	!	!LO:LB:g=original	!	!	!	!	!	!	!	!	!	!	!
=45	=45	=45	=45	=45	=45	=45	=45	=45	=45	=45	=45	=45	=45	=45	=45	=45	=45
*	*	*	*	*tremolo	*	*	*	*	*	*	*	*	*	*	*	*	*
!	!	!	!	!	!LO:DY:b:rj	!	!	!	!	!	!	!	!	!	!	!	!
8r	.	8r	.	16c#/LL	f	8aa\	.	4r	4r	4r	.	4r	.	4r	.	4r	.
.	.	.	.	16c#/	.	.	.	.	.	.	.	.	.	.	.	.	.
16AA/LL	.	16A/LL	.	16c#/	.	8r	.	.	.	.	.	.	.	.	.	.	.
16BB/JJ	.	16B/JJ	.	16c#/JJ	.	.	.	.	.	.	.	.	.	.	.	.	.
!	!	!	!	!	!	!	!	!	!	!	!	!LO:SIC:o=4e:v:t=w źródle dźwięk zamazany	!	!	!	!	!
8C#/L	.	8c#/L	.	16a/LL	.	4ee 4e/	f	4a/	4aa\	4A/	.	4e\	.	4ee\	.	4aa\	.
.	.	.	.	16a/	.	.	.	.	.	.	.	.	.	.	.	.	.
8AA/J	.	8A/J	.	16a/	.	.	.	.	.	.	.	.	.	.	.	.	.
.	.	.	.	16a/JJ	.	.	.	.	.	.	.	.	.	.	.	.	.
!	!	!	!	!	!	!	!	!	!	!	!	!	!	!LO:LB:g=original	!	!	!
8D/L	.	8d/L	.	16b/LL	.	4dd 4f#/	.	4dd\	4ff#\	4d\	.	4f#\	.	4dd\	.	4ff#\	.
.	.	.	.	16b/	.	.	.	.	.	.	.	.	.	.	.	.	.
8BB/	.	8B/	.	16b/	.	.	.	.	.	.	.	.	.	.	.	.	.
.	.	.	.	16b/JJ	.	.	.	.	.	.	.	.	.	.	.	.	.
8E/	.	8e/	.	16g#X/LL	.	4b 4e/	.	4ee\	4ee\	4e\	.	4e\	.	4b\	.	4gg#X\	.
.	.	.	.	16g#X/	.	.	.	.	.	.	.	.	.	.	.	.	.
8EE/J	.	8E/J	.	16g#X/	.	.	.	.	.	.	.	.	.	.	.	.	.
.	.	.	.	16g#X/JJ	.	.	.	.	.	.	.	.	.	.	.	.	.
*	*	*	*	*Xtremolo	*	*	*	*	*	*	*	*	*	*	*	*	*
!	!	!	!	!	!	!	!	!	!	!LO:LB:g=original	!	!	!	!	!	!	!
=46	=46	=46	=46	=46	=46	=46	=46	=46	=46	=46	=46	=46	=46	=46	=46	=46	=46
8AA/L	.	8A/L	.	8a/	.	4cc# 4e/	.	4a/	4ee\	4A/	.	4e\	.	4cc#\	.	4aa\	.
8AA/	.	8A/	.	4ee\	.	.	.	.	.	.	.	.	.	.	.	.	.
8C#/	.	8c#/	.	.	.	8r	.	4r	4r	4r	.	4r	.	8r	.	8r	.
8E/J	.	8e/J	.	16ee\LL	.	16ccc#\LL	.	.	.	.	.	.	.	16cc#\LL	.	16ee\LL	.
.	.	.	.	16dd\JJ	.	16bb\JJ	.	.	.	.	.	.	.	16b\JJ	.	16dd\JJ	.
!LO:LB:g=original	!	!	!	!	!	!	!	!	!	!	!	!	!	!	!	!	!
!LO:TX:a:t=P:problem=mixed beam	!	!LO:TX:a:t=P:problem=mixed beam	!	!	!	!	!	!	!	!	!	!	!	!	!	!	!
8A\L	.	8a\L	.	8cc#\	.	4aa\	.	4a/	4ee\	4A/	.	4e\	.	4a/	.	4cc#\	.
8AA/	.	8A/	.	4ee\	.	.	.	.	.	.	.	.	.	.	.	.	.
8C#/	.	8c#/	.	.	.	8r	.	4r	4r	4r	.	4r	.	8r	.	8r	.
8E/J	.	8e/J	.	16ee\LL	.	16ccc#\LL	.	.	.	.	.	.	.	16cc#\LL	.	16ee\LL	.
.	.	.	.	16dd\JJ	.	16bb\JJ	.	.	.	.	.	.	.	16b\JJ	.	16dd\JJ	.
=47	=47	=47	=47	=47	=47	=47	=47	=47	=47	=47	=47	=47	=47	=47	=47	=47	=47
*tremolo	*	*tremolo	*	*	*	*	*	*	*	*	*	*	*	*	*	*	*
8A\L	.	8a\L	.	4cc#\	.	4aa\	.	4a/	4ee\	4A/	.	4e\	.	4a/	.	4cc#\	.
8A\	.	8a\	.	.	.	.	.	.	.	.	.	.	.	.	.	.	.
8A\	.	8a\	.	4cc# 4e 4A/	.	4aa 4cc# 4e/	.	8a/L	8ee\L	8A/L	.	8e\L	.	4cc#/	.	4aa\	.
8A\J	.	8a\J	.	.	.	.	.	8a/J	8ee\J	8A/J	.	8e\J	.	.	.	.	.
*Xtremolo	*	*Xtremolo	*	*	*	*	*	*	*	*	*	*	*	*	*	*	*
!	!	!	!	!	!	!	!	!	!LO:LB:g=original	!	!	!	!	!	!	!	!
4A\	.	4a\	.	4cc# 4e 4A/	.	4aa 4cc# 4e/	.	4a/	4ee\	4A/	.	4e\	.	4cc#/	.	4aa\	.
4r	.	4r	.	4r	.	4r	.	4r	4r	4r	.	4r	.	4r	.	4r	.
!	!	!	!	!LO:LB:g=original	!	!	!	!	!	!	!	!	!	!	!	!	!
!	!	!LO:LB:g=original	!	!	!	!	!	!	!	!	!	!	!	!	!	!	!
=48	=48	=48	=48	=48	=48	=48	=48	=48	=48	=48	=48	=48	=48	=48	=48	=48	=48
*	*	*tremolo	*	*	*	*	*	*	*	*	*	*	*	*	*	*	*
!LO:TX:a:t=3	!	!	!LO:DY:b:rj	!	!	!	!	!LO:TX:a:t=3	!LO:TX:a:t=3	!LO:TX:a:t=3	!	!LO:TX:a:t=3	!	!	!	!LO:TX:a:t=3	!
0r	.	16a\LL	p	2r	.	2r	p	0r	0r	0r	.	0r	.	0r	.	0r	.
.	.	16a\	.	.	.	.	.	.	.	.	.	.	.	.	.	.	.
.	.	16a\	.	.	.	.	.	.	.	.	.	.	.	.	.	.	.
.	.	16a\	.	.	.	.	.	.	.	.	.	.	.	.	.	.	.
.	.	16a\	.	.	.	.	.	.	.	.	.	.	.	.	.	.	.
.	.	16a\	.	.	.	.	.	.	.	.	.	.	.	.	.	.	.
.	.	16a\	.	.	.	.	.	.	.	.	.	.	.	.	.	.	.
.	.	16a\JJ	.	.	.	.	.	.	.	.	.	.	.	.	.	.	.
!	!	!	!	!	!LO:DY:b:rj	!	!	!	!	!	!	!	!	!	!	!	!
.	.	16a\LL	.	8e/	p	8cc#\	.	.	.	.	.	.	.	.	.	.	.
.	.	16a\	.	.	.	.	.	.	.	.	.	.	.	.	.	.	.
.	.	16a\	.	8r	.	8r	.	.	.	.	.	.	.	.	.	.	.
.	.	16a\	.	.	.	.	.	.	.	.	.	.	.	.	.	.	.
.	.	16a\	.	8f#/	.	8dd\	.	.	.	.	.	.	.	.	.	.	.
.	.	16a\	.	.	.	.	.	.	.	.	.	.	.	.	.	.	.
.	.	16a\	.	8r	.	8r	.	.	.	.	.	.	.	.	.	.	.
.	.	16a\JJ	.	.	.	.	.	.	.	.	.	.	.	.	.	.	.
=49	=49	=49	=49	=49	=49	=49	=49	=49	=49	=49	=49	=49	=49	=49	=49	=49	=49
.	.	16a\LL	.	4gn/	.	8ee\	.	.	.	.	.	.	.	.	.	.	.
.	.	16a\	.	.	.	.	.	.	.	.	.	.	.	.	.	.	.
.	.	16a\	.	.	.	8r	.	.	.	.	.	.	.	.	.	.	.
.	.	16a\	.	.	.	.	.	.	.	.	.	.	.	.	.	.	.
.	.	16a\	.	4r	.	4r	.	.	.	.	.	.	.	.	.	.	.
.	.	16a\	.	.	.	.	.	.	.	.	.	.	.	.	.	.	.
.	.	16a\	.	.	.	.	.	.	.	.	.	.	.	.	.	.	.
.	.	16a\JJ	.	.	.	.	.	.	.	.	.	.	.	.	.	.	.
.	.	16a\LL	.	4f#/	.	4dd`>\	.	.	.	.	.	.	.	.	.	.	.
.	.	16a\	.	.	.	.	.	.	.	.	.	.	.	.	.	.	.
.	.	16a\	.	.	.	.	.	.	.	.	.	.	.	.	.	.	.
.	.	16a\	.	.	.	.	.	.	.	.	.	.	.	.	.	.	.
.	.	16a\	.	4g/	.	4ee`>\	.	.	.	.	.	.	.	.	.	.	.
.	.	16a\	.	.	.	.	.	.	.	.	.	.	.	.	.	.	.
.	.	16a\	.	.	.	.	.	.	.	.	.	.	.	.	.	.	.
.	.	16a\JJ	.	.	.	.	.	.	.	.	.	.	.	.	.	.	.
=50	=50	=50	=50	=50	=50	=50	=50	=50	=50	=50	=50	=50	=50	=50	=50	=50	=50
1r	.	16a\LL	.	4a/	.	4ff#`>\	.	1r	1r	1r	.	1r	.	1r	.	1r	.
.	.	16a\	.	.	.	.	.	.	.	.	.	.	.	.	.	.	.
.	.	16a\	.	.	.	.	.	.	.	.	.	.	.	.	.	.	.
.	.	16a\	.	.	.	.	.	.	.	.	.	.	.	.	.	.	.
.	.	16a\	.	4r	.	4r	.	.	.	.	.	.	.	.	.	.	.
.	.	16a\	.	.	.	.	.	.	.	.	.	.	.	.	.	.	.
.	.	16a\	.	.	.	.	.	.	.	.	.	.	.	.	.	.	.
.	.	16a\JJ	.	.	.	.	.	.	.	.	.	.	.	.	.	.	.
.	.	16a\LL	.	4cc#`>\	.	4ee`>\	.	.	.	.	.	.	.	.	.	.	.
.	.	16a\	.	.	.	.	.	.	.	.	.	.	.	.	.	.	.
.	.	16a\	.	.	.	.	.	.	.	.	.	.	.	.	.	.	.
.	.	16a\	.	.	.	.	.	.	.	.	.	.	.	.	.	.	.
.	.	16a\	.	4dd`>\	.	4ff#`>\	.	.	.	.	.	.	.	.	.	.	.
.	.	16a\	.	.	.	.	.	.	.	.	.	.	.	.	.	.	.
.	.	16a\	.	.	.	.	.	.	.	.	.	.	.	.	.	.	.
.	.	16a\JJ	.	.	.	.	.	.	.	.	.	.	.	.	.	.	.
=51	=51	=51	=51	=51	=51	=51	=51	=51	=51	=51	=51	=51	=51	=51	=51	=51	=51
4r	.	16a\LL	f	4ee\	.	4ggn\	f	4r	4r	4r	.	4r	.	4r	.	4r	.
.	.	16a\	.	.	.	.	.	.	.	.	.	.	.	.	.	.	.
.	.	16a\	.	.	.	.	.	.	.	.	.	.	.	.	.	.	.
.	.	16a\	.	.	.	.	.	.	.	.	.	.	.	.	.	.	.
4c#\	.	16a\	.	8.ee\L	f	8.eeT>\L	.	4a/	4a/	4A/	.	4a\	.	4a/	.	4ee\	.
.	.	16a\	.	.	.	.	.	.	.	.	.	.	.	.	.	.	.
.	.	16a\	.	.	.	.	.	.	.	.	.	.	.	.	.	.	.
.	.	16a\JJ	.	32dd\LL	.	32dd\LL	.	.	.	.	.	.	.	.	.	.	.
.	.	.	.	32ee\JJJ	.	32ee\JJJ	.	.	.	.	.	.	.	.	.	.	.
4d\	.	16a\LL	.	4ff#\	.	4ff#\	.	4a/	4a/	4d\	.	4f#\	.	4a/	.	4ff#\	.
.	.	16a\	.	.	.	.	.	.	.	.	.	.	.	.	.	.	.
.	.	16a\	.	.	.	.	.	.	.	.	.	.	.	.	.	.	.
.	.	16a\	.	.	.	.	.	.	.	.	.	.	.	.	.	.	.
4B\	.	16a\	.	8.dd\L	.	8.ddT>\L	.	4dd/	4dd\	4D/	.	4d\	.	4dd\	.	4dd\	.
.	.	16a\	.	.	.	.	.	.	.	.	.	.	.	.	.	.	.
.	.	16a\	.	.	.	.	.	.	.	.	.	.	.	.	.	.	.
.	.	16a\JJ	.	32cc#\LL	.	32cc#\LL	.	.	.	.	.	.	.	.	.	.	.
.	.	.	.	32dd\JJJ	.	32dd\JJJ	.	.	.	.	.	.	.	.	.	.	.
!	!	!	!	!	!	!LO:LB:g=original	!	!	!	!	!	!	!	!	!	!	!
*	*	*Xtremolo	*	*	*	*	*	*	*	*	*	*	*	*	*	*	*
=52	=52	=52	=52	=52	=52	=52	=52	=52	=52	=52	=52	=52	=52	=52	=52	=52	=52
4A\	.	4a\	.	4aa 4a/	.	4aa 4a/	.	4a/	4a/	4A/	.	4A/	.	4cc#\	.	4aa\	.
8r	.	8r	.	8r	.	8r	.	4r	4r	4r	.	4r	.	4r	.	4r	.
8A\	.	8a\	.	8a/	.	8a/	.	.	.	.	.	.	.	.	.	.	.
8Gn\L	.	8g\L	.	8g/L	.	16a/LL	.	2r	2r	2r	.	2r	.	2r	.	2r	.
.	.	.	.	.	.	16g/J	.	.	.	.	.	.	.	.	.	.	.
8F#\	.	8f#\	.	8f#/	.	8f#/J	.	.	.	.	.	.	.	.	.	.	.
8E\	.	8e\	.	8e/	.	8e/L	.	.	.	.	.	.	.	.	.	.	.
8D\J	.	8d\J	.	8d/J	.	8d/J	.	.	.	.	.	.	.	.	.	.	.
!	!	!	!	!	!	!	!	!	!	!	!	!	!	!	!	!LO:LB:g=original	!
=53	=53	=53	=53	=53	=53	=53	=53	=53	=53	=53	=53	=53	=53	=53	=53	=53	=53
!	!	!LO:TX:a:t=P:problem=mixed beam	!	!	!	!	!	!LO:TX:a:t=3	!LO:TX:a:t=3	!	!	!	!	!	!	!	!
4AA/	.	16A/LL	.	4A/	.	4A/	.	0r	0r	1r	.	1r	.	1a	p	[<1aa	.
.	.	16a\	p	.	.	.	.	.	.	.	.	.	.	.	.	.	.
.	.	16a\	.	.	.	.	.	.	.	.	.	.	.	.	.	.	.
.	.	16a\JJ	.	.	.	.	.	.	.	.	.	.	.	.	.	.	.
*	*	*tremolo	*	*	*	*	*	*	*	*	*	*	*	*	*	*	*
4r	.	16a\LL	.	4r	.	4r	.	.	.	.	.	.	.	.	.	.	.
.	.	16a\	.	.	.	.	.	.	.	.	.	.	.	.	.	.	.
.	.	16a\	.	.	.	.	.	.	.	.	.	.	.	.	.	.	.
.	.	16a\JJ	.	.	.	.	.	.	.	.	.	.	.	.	.	.	.
!	!	!	!	!	!	!	!LO:DY:b:rj	!	!	!	!	!	!	!	!	!	!
2r	.	16a\LL	.	4e/	p	4cc#`>\	p	.	.	.	.	.	.	.	.	.	.
.	.	16a\	.	.	.	.	.	.	.	.	.	.	.	.	.	.	.
.	.	16a\	.	.	.	.	.	.	.	.	.	.	.	.	.	.	.
.	.	16a\	.	.	.	.	.	.	.	.	.	.	.	.	.	.	.
.	.	16a\	.	4f#/	.	4dd`>\	.	.	.	.	.	.	.	.	.	.	.
.	.	16a\	.	.	.	.	.	.	.	.	.	.	.	.	.	.	.
.	.	16a\	.	.	.	.	.	.	.	.	.	.	.	.	.	.	.
.	.	16a\JJ	.	.	.	.	.	.	.	.	.	.	.	.	.	.	.
=54	=54	=54	=54	=54	=54	=54	=54	=54	=54	=54	=54	=54	=54	=54	=54	=54	=54
!LO:TX:a:t=2	!	!	!	!	!	!	!	!	!	!	!	!	!	!	!	!	!
0r	.	16a\LL	.	4g/	.	4ee`>\	.	.	.	4r	.	4r	.	1a	.	1aa_<	.
.	.	16a\	.	.	.	.	.	.	.	.	.	.	.	.	.	.	.
.	.	16a\	.	.	.	.	.	.	.	.	.	.	.	.	.	.	.
.	.	16a\	.	.	.	.	.	.	.	.	.	.	.	.	.	.	.
!	!	!	!	!	!	!	!	!	!	!	!	!	!LO:DY:b:rj	!	!	!	!
.	.	16a\	.	4r	.	4r	.	.	.	4A/	p	4e\	p	.	.	.	.
.	.	16a\	.	.	.	.	.	.	.	.	.	.	.	.	.	.	.
.	.	16a\	.	.	.	.	.	.	.	.	.	.	.	.	.	.	.
.	.	16a\JJ	.	.	.	.	.	.	.	.	.	.	.	.	.	.	.
.	.	16a\LL	.	4f#/	.	4dd`>\	.	.	.	4d/	.	4f#\	.	.	.	.	.
.	.	16a\	.	.	.	.	.	.	.	.	.	.	.	.	.	.	.
.	.	16a\	.	.	.	.	.	.	.	.	.	.	.	.	.	.	.
.	.	16a\	.	.	.	.	.	.	.	.	.	.	.	.	.	.	.
.	.	16a\	.	4g/	.	4ee`>\	.	.	.	4r	.	4r	.	.	.	.	.
.	.	16a\	.	.	.	.	.	.	.	.	.	.	.	.	.	.	.
.	.	16a\	.	.	.	.	.	.	.	.	.	.	.	.	.	.	.
.	.	16a\JJ	.	.	.	.	.	.	.	.	.	.	.	.	.	.	.
!	!	!	!	!LO:LB:g=original	!	!	!	!	!	!	!	!	!	!	!	!	!
=55	=55	=55	=55	=55	=55	=55	=55	=55	=55	=55	=55	=55	=55	=55	=55	=55	=55
.	.	16a\LL	.	4a/	.	4ff#`>\	.	1r	1r	4r	.	4r	.	1a	.	1aa_<	.
.	.	16a\	.	.	.	.	.	.	.	.	.	.	.	.	.	.	.
.	.	16a\	.	.	.	.	.	.	.	.	.	.	.	.	.	.	.
.	.	16a\	.	.	.	.	.	.	.	.	.	.	.	.	.	.	.
.	.	16a\	.	4r	.	4r	.	.	.	4d/	.	4f#\	.	.	.	.	.
.	.	16a\	.	.	.	.	.	.	.	.	.	.	.	.	.	.	.
.	.	16a\	.	.	.	.	.	.	.	.	.	.	.	.	.	.	.
.	.	16a\JJ	.	.	.	.	.	.	.	.	.	.	.	.	.	.	.
.	.	16a\LL	.	4cc#\	.	4ee`>\	.	.	.	4A/	.	4e\	.	.	.	.	.
.	.	16a\	.	.	.	.	.	.	.	.	.	.	.	.	.	.	.
.	.	16a\	.	.	.	.	.	.	.	.	.	.	.	.	.	.	.
.	.	16a\	.	.	.	.	.	.	.	.	.	.	.	.	.	.	.
.	.	16a\	.	4dd\	.	4ff#`>\	.	.	.	4r	.	4r	.	.	.	.	.
.	.	16a\	.	.	.	.	.	.	.	.	.	.	.	.	.	.	.
.	.	16a\	.	.	.	.	.	.	.	.	.	.	.	.	.	.	.
.	.	16a\JJ	.	.	.	.	.	.	.	.	.	.	.	.	.	.	.
!	!	!	!	!	!	!	!	!LO:LB:g=original	!	!	!	!	!	!	!	!	!
=56	=56	=56	=56	=56	=56	=56	=56	=56	=56	=56	=56	=56	=56	=56	=56	=56	=56
!	!	!	!	!	!	!	!	!	!	!	!	!	!	!	!LO:DY:b:rj	!	!
4r	.	16a\LL	.	4ee\	f	4gg`>\	f	4r	4r	4r	.	4r	.	4a/	f	4aa\]	.
.	.	16a\	.	.	.	.	.	.	.	.	.	.	.	.	.	.	.
.	.	16a\	.	.	.	.	.	.	.	.	.	.	.	.	.	.	.
.	.	16a\	.	.	.	.	.	.	.	.	.	.	.	.	.	.	.
4c#\	.	16a\	.	8.ee\L	.	8.eeT>\L	.	4a/	4a/	4A/	f	4a\	.	4ee\	.	4aa\	.
.	.	16a\	.	.	.	.	.	.	.	.	.	.	.	.	.	.	.
.	.	16a\	.	.	.	.	.	.	.	.	.	.	.	.	.	.	.
.	.	16a\JJ	.	32dd\LL	.	32dd\LL	.	.	.	.	.	.	.	.	.	.	.
.	.	.	.	32ee\JJJ	.	32ee\JJJ	.	.	.	.	.	.	.	.	.	.	.
*	*	*Xtremolo	*	*	*	*	*	*	*	*	*	*	*	*	*	*	*
4d\	.	8a\L	.	4ff#\	.	4ff#\	.	4a/	4a/	4F#/	.	4f#\	.	4ff#\	.	4aa\	.
.	.	8a\	.	.	.	.	.	.	.	.	.	.	.	.	.	.	.
4B\	.	8dd\	.	8.dd\L	.	8.ddT>\L	.	4dd\	4dd\	4D/	.	4d\	.	4dd\	.	4gg#X\	.
.	.	8dd\J	.	.	.	.	.	.	.	.	.	.	.	.	.	.	.
.	.	.	.	32cc#\LL	.	32cc#\LL	.	.	.	.	.	.	.	.	.	.	.
.	.	.	.	32dd\JJJ	.	32dd\JJJ	.	.	.	.	.	.	.	.	.	.	.
=57	=57	=57	=57	=57	=57	=57	=57	=57	=57	=57	=57	=57	=57	=57	=57	=57	=57
4A\	.	4cc#\	.	4aa 4a/	.	4aa 4a/	.	4a/	4a/	4A/	.	4a\	.	4cc#\	.	4aa\	.
!	!	!LO:LB:g=original	!	!	!	!	!	!	!	!	!	!	!	!	!	!	!
8r	.	8r	.	8r	.	8r	.	4r	4r	4r	.	4r	.	8r	.	8r	.
8B\	.	8b\	.	8b\	.	8b/	.	.	.	.	.	.	.	8b\	.	8bb\	.
8E\L	.	8e\L	.	8e/L	.	8e/L	.	2r	2r	2r	.	2r	.	8e/L	.	8ee\L	.
8F#\	.	8f#\	.	8f#/	.	8f#/	.	.	.	.	.	.	.	8f#/	.	8ff#\	.
8G\	.	8g\	.	8g/	.	8g/	.	.	.	.	.	.	.	8g/	.	8gg\	.
8E\J	.	8e\J	.	8e/J	.	8e/J	.	.	.	.	.	.	.	8e/J	.	8ee\J	.
!	!	!	!	!	!	!	!	!	!	!	!	!	!	!LO:LB:g=original	!	!	!
=58	=58	=58	=58	=58	=58	=58	=58	=58	=58	=58	=58	=58	=58	=58	=58	=58	=58
4F#\	.	4f#\	.	4f#/	.	4f#/	.	4f#/	4f#/	4F#/	.	4f#\	.	4f#/	.	4ff#\	.
8r	.	8r	.	8r	.	8r	.	4r	4r	4r	.	4r	.	8r	.	8r	.
8G\	.	8g\	.	8g/	.	8g/	.	.	.	.	.	.	.	8g/	.	8gg\	.
8C#/L	.	8c#\L	.	8c#/L	.	8c#/L	.	2r	2r	2r	.	2r	.	8c#/L	.	8cc#\L	.
8D/	.	8d\	.	8d/	.	8d/	.	.	.	.	.	.	.	8d/	.	8dd\	.
8E/	.	8e\	.	8e/	.	8e/	.	.	.	.	.	.	.	8e/	.	8ee\	.
8C#/J	.	8c#\J	.	8c#/J	.	8c#/J	.	.	.	.	.	.	.	8c#/J	.	8cc#\J	.
!	!	!	!	!	!	!LO:LB:g=original	!	!	!	!	!	!	!	!	!	!	!
!LO:LB:g=original	!	!	!	!	!	!	!	!	!	!	!	!	!	!	!	!	!
=59	=59	=59	=59	=59	=59	=59	=59	=59	=59	=59	=59	=59	=59	=59	=59	=59	=59
4D`>\	.	4d\	.	4d/	.	4d/	.	4d/	4d/	4D/	.	4d\	.	4d/	.	4dd\	.
4F#`>\	.	4f#\	.	4f#/	.	4f#/	.	4f#/	4f#/	4F#/	.	4f#\	.	4f#/	.	4f#/	.
4A`>\	.	4a\	.	4a/	.	4a/	.	4a/	4a/	4A/	.	4a\	.	4a/	.	4a/	.
8r	.	8r	.	8r	.	8r	.	4r	4r	4r	.	4r	.	8r	.	8r	.
8F#\	.	8f#\	.	8f#/	.	8f#/	.	.	.	.	.	.	.	8f#/	.	8f#/	.
=60	=60	=60	=60	=60	=60	=60	=60	=60	=60	=60	=60	=60	=60	=60	=60	=60	=60
!	!	!	!	!	!	!	!	!LO:TX:a:t=3	!LO:TX:a:t=3	!	!	!	!	!	!	!	!
8G\L	.	8g\L	.	8g\L	.	8g/L	.	0r	0r	1r	.	1r	.	8g/L	.	8g/L	.
8A\	.	8a\	.	8a\	.	8a/	.	.	.	.	.	.	.	8a/	.	8a/	.
8B\	.	8b\	.	8b\	.	8b/	.	.	.	.	.	.	.	8b/	.	8b/	.
8c#\J	.	8cc#\J	.	8cc#\J	.	8cc#/J	.	.	.	.	.	.	.	8cc#/J	.	8cc#/J	.
4d\	.	4dd\	.	4dd\	.	4dd\	.	.	.	.	.	.	.	4dd\	.	4dd\	.
4r	.	4r	.	4r	.	4r	.	.	.	.	.	.	.	4r	.	4r	.
!	!	!	!	!LO:LB:g=original	!	!	!	!	!	!	!	!	!	!	!	!	!
=61	=61	=61	=61	=61	=61	=61	=61	=61	=61	=61	=61	=61	=61	=61	=61	=61	=61
!LO:TX:a:t=2	!	!LO:TX:a:t=2	!	!	!	!	!	!	!	!	!	!	!	!	!	!	!
!	!	!	!	!	!LO:DY:b:rj	!	!	!	!	!	!	!	!	!	!	!	!
0r	.	0r	.	8dd`>\L	p	(>32ff#\LLL	.	.	.	4r	.	4r	.	4r	p	4r	.
.	.	.	.	.	.	32ee\JJ)	.	.	.	.	.	.	.	.	.	.	.
.	.	.	.	.	.	8.ff#\J	.	.	.	.	.	.	.	.	.	.	.
.	.	.	.	8a`>\	.	.	.	.	.	.	.	.	.	.	.	.	.
.	.	.	.	8dd`>\	.	8ff#`>\L	.	.	.	8F#/L	p	8d\L	.	8dd\L	.	8ff#\L	p
.	.	.	.	8a`>\J	.	8ff#`>\J	.	.	.	8F#/J	.	8d\J	.	8dd\J	.	8ff#\J	.
.	.	.	.	8cc#`>\L	.	4ee\	.	.	.	4A/	.	4e\	.	4cc#\	.	4ee\	.
.	.	.	.	8a`>\	.	.	.	.	.	.	.	.	.	.	.	.	.
.	.	.	.	8cc#`>\	.	4r	.	.	.	4r	.	4r	.	4r	.	4r	.
.	.	.	.	8a`>\J	.	.	.	.	.	.	.	.	.	.	.	.	.
!	!	!	!	!	!	!	!	!	!	!	!	!	!	!	!	!LO:LB:g=original	!
=62	=62	=62	=62	=62	=62	=62	=62	=62	=62	=62	=62	=62	=62	=62	=62	=62	=62
.	.	.	.	8ee`>\L	.	32gg\LLL	.	1r	1r	4r	.	4r	.	4r	.	4r	.
.	.	.	.	.	.	32ff#\JJ	.	.	.	.	.	.	.	.	.	.	.
.	.	.	.	.	.	8.gg\J	.	.	.	.	.	.	.	.	.	.	.
.	.	.	.	8a`>\	.	.	.	.	.	.	.	.	.	.	.	.	.
.	.	.	.	8ee`>\	.	8gg`>\L	.	.	.	8A/L	.	8e\L	.	8ee\L	.	8gg\L	.
.	.	.	.	8a`>\J	.	8gg`>\J	.	.	.	8A/J	.	8e\J	.	8ee\J	.	8gg\J	.
!	!	!	!	!	!	!	!	!	!	!	!	!LO:LB:g=original	!	!	!	!	!
.	.	.	.	8dd`>\L	.	4ff#\	.	.	.	4d\	.	4f#\	.	4dd\	.	4ff#\	.
.	.	.	.	8a`>\	.	.	.	.	.	.	.	.	.	.	.	.	.
.	.	.	.	8dd`>\	.	4r	.	.	.	4r	.	4r	.	4r	.	4r	.
.	.	.	.	8a`>\J	.	.	.	.	.	.	.	.	.	.	.	.	.
=63	=63	=63	=63	=63	=63	=63	=63	=63	=63	=63	=63	=63	=63	=63	=63	=63	=63
*tremolo	*	*tremolo	*	*	*	*	*	*	*	*	*	*	*	*	*	*	*
!	!	!	!	!	!	!	!	!	!	!	!LO:DY:b:rj	!	!LO:DY:b:rj	!	!LO:DY:b:rj	!	!
8D\L	.	8d\L	.	8ff# 8a 8d/	.	(>8aa\L	.	4d/	4dd\	4D/	f	4d\	f	4ff#\	f	4aa\	.
8D\	.	8d\	.	8r	.	8ddd\J)	.	.	.	.	.	.	.	.	.	.	.
8D\	.	8d\	.	8gg 8b 8d/	.	8bb`>\L	.	4r	4r	4D/	.	4d\	.	4gg\	.	4bb\	.
8D\J	.	8d\J	.	8r	.	8gg`>\J	.	.	.	.	.	.	.	.	.	.	.
8D\L	.	8d\L	.	8ff# 8a 8d/	.	(>8aa\L	.	4d/	4dd\	4D/	.	4d\	.	4ff#\	.	4aa\	.
8D\	.	8d\	.	8r	.	8ddd\J)	.	.	.	.	.	.	.	.	.	.	.
8D\	.	8d\	.	8gg 8b 8d/	.	8bb`>\L	.	4r	4r	4D/	.	4d\	.	4gg\	.	4bb\	.
8D\J	.	8d\J	.	8r	.	8gg`>\J	.	.	.	.	.	.	.	.	.	.	.
*Xtremolo	*	*Xtremolo	*	*	*	*	*	*	*	*	*	*	*	*	*	*	*
!	!	!	!	!	!	!	!	!	!	!LO:LB:g=original	!	!	!	!	!	!	!
=64	=64	=64	=64	=64	=64	=64	=64	=64	=64	=64	=64	=64	=64	=64	=64	=64	=64
4D\	.	4d\	.	4ff# 4a 4d/	.	(>8aa\L	.	4d/	4dd\	4D/	.	4d\	.	4ff#\	.	4aa\	.
.	.	.	.	.	.	8ddd\J)	.	.	.	.	.	.	.	.	.	.	.
4G\	.	(<4g\	.	4gg 4b 4d/	.	8ee`>\L	.	4r	4r	4r	.	4r	.	4gg\	.	4bb\	.
.	.	.	.	.	.	8bb`>\J	.	.	.	.	.	.	.	.	.	.	.
!	!	!	!	!	!	!LO:LB:g=original	!	!	!	!	!	!	!	!	!	!	!
4A\	.	4a\)	.	4ff# 4a 4d/	.	8aa\L	.	4dd\	4ff#\	4d\	.	4f#\	.	4ff#\	.	4aa\	.
.	.	.	.	.	.	16gg\L	.	.	.	.	.	.	.	.	.	.	.
.	.	.	.	.	.	16ff#\JJ	.	.	.	.	.	.	.	.	.	.	.
.	.	.	.	.	.	8qqff#/	.	.	.	.	.	.	.	.	.	.	.
4AA/	.	4A/	.	4cc# 4e 4A/	.	8ee\L	.	4a/	4ee\	4A/	.	4e\	.	4ee\	.	4cc#\	.
.	.	.	.	.	.	16dd\L	.	.	.	.	.	.	.	.	.	.	.
.	.	.	.	.	.	16cc#\JJ	.	.	.	.	.	.	.	.	.	.	.
=65	=65	=65	=65	=65	=65	=65	=65	=65	=65	=65	=65	=65	=65	=65	=65	=65	=65
4D\	.	4d\	.	4d/	.	4dd\	.	4d/	4dd\	4D/	.	4d\	.	4dd\	.	4dd\	.
4F#\	.	4f#\	.	4f#/	.	4f#/	.	4f#/	4f#/	4F#/	.	4f#\	.	4f#/	.	4f#/	.
4A\	.	4a\	.	4a/	.	4a/	.	4a/	4a/	4A/	.	4a\	.	4a/	.	4a/	.
8r	.	8r	.	8r	.	8r	.	4r	4r	4r	.	4r	.	8r	.	8r	.
8G\	.	8g\	.	8g/	.	8g/	.	.	.	.	.	.	.	8g/	.	8g/	.
!	!	!	!	!	!	!	!	!	!	!	!	!	!	!LO:LB:g=original	!	!	!
=66	=66	=66	=66	=66	=66	=66	=66	=66	=66	=66	=66	=66	=66	=66	=66	=66	=66
!	!	!	!	!	!	!	!	!	!LO:TX:a:t=1	!	!	!	!	!	!	!	!
8F#\L	.	8f#\L	.	8f#/L	.	8f#/L	.	1r	1r	1r	.	1r	.	8f#/L	.	8f#/L	.
8G\	.	8g\	.	8g/	.	8g/	.	.	.	.	.	.	.	8g/	.	8g/	.
8A\	.	8a\	.	8a/	.	8a/	.	.	.	.	.	.	.	8a/	.	8a/	.
8B\J	.	8b\J	.	8b/J	.	8b/J	.	.	.	.	.	.	.	8b/J	.	8b/J	.
!	!	!LO:LB:g=original	!	!	!	!	!	!	!	!	!	!	!	!	!	!	!
4cn\	.	4ccn\	.	4ccn\	.	4ccn\	.	.	.	.	.	.	.	4ccn\	.	4ccn\	.
4r	.	4r	.	4r	.	4r	.	.	.	.	.	.	.	4r	.	4r	.
=67	=67	=67	=67	=67	=67	=67	=67	=67	=67	=67	=67	=67	=67	=67	=67	=67	=67
4D#X/	.	4f#\	.	8b\L	.	16b\LL	.	4ff#\	4ff#\	4r	.	4r	.	4r	.	4r	.
.	.	.	.	.	.	16bb\	.	.	.	.	.	.	.	.	.	.	.
.	.	.	.	16ff#\L	.	16b\	.	.	.	.	.	.	.	.	.	.	.
.	.	.	.	16gg\JJ	.	16bb\JJ	.	.	.	.	.	.	.	.	.	.	.
!	!	!	!	!LO:LB:g=original	!	!	!	!	!	!	!	!	!	!	!	!	!
4BB/	.	4d#X\	.	8aa\L	.	16b\LL	.	4r	4r	4f#\	.	4f#\	.	4ff#\	.	4aa\	.
.	.	.	.	.	.	16bb\	.	.	.	.	.	.	.	.	.	.	.
.	.	.	.	16gg\L	.	16b\	.	.	.	.	.	.	.	.	.	.	.
.	.	.	.	16ff#\JJ	.	16bb\JJ	.	.	.	.	.	.	.	.	.	.	.
*	*	*	*	*	*	*tremolo	*	*	*	*	*	*	*	*	*	*	*
!	!	!	!	!	!	!	!	!	!LO:LB:g=original	!	!	!	!	!	!	!	!
4E/	.	4e\	.	8gg\L	.	16bb 16b\LL	.	4ee\	4ee\	4e\	.	4e\	.	4ee\	.	4gg\	.
.	.	.	.	.	.	16bb 16b\	.	.	.	.	.	.	.	.	.	.	.
.	.	.	.	8bb\	.	16bb 16b\	.	.	.	.	.	.	.	.	.	.	.
.	.	.	.	.	.	16bb 16b\	.	.	.	.	.	.	.	.	.	.	.
4r	.	4g\	.	8ee\	.	16bb 16b\	.	4r	4r	4r	.	4r	.	4r	.	4r	.
.	.	.	.	.	.	16bb 16b\	.	.	.	.	.	.	.	.	.	.	.
.	.	.	.	8gg\J	.	16bb 16b\	.	.	.	.	.	.	.	.	.	.	.
.	.	.	.	.	.	16bb 16b\JJ	.	.	.	.	.	.	.	.	.	.	.
=68	=68	=68	=68	=68	=68	=68	=68	=68	=68	=68	=68	=68	=68	=68	=68	=68	=68
4D#X/	.	4b\	.	8b\L	.	16bb 16b\LL	.	4ff#\	4ff#\	4r	.	4r	.	4r	.	4r	.
.	.	.	.	.	.	16bb 16b\	.	.	.	.	.	.	.	.	.	.	.
.	.	.	.	16ff#\L	.	16bb 16b\	.	.	.	.	.	.	.	.	.	.	.
.	.	.	.	16gg\JJ	.	16bb 16b\	.	.	.	.	.	.	.	.	.	.	.
4BB/	.	4d#X\	.	8aa\L	.	16bb 16b\	.	4r	4r	4f#\	.	4f#\	.	4ff#\	.	4aa\	.
.	.	.	.	.	.	16bb 16b\	.	.	.	.	.	.	.	.	.	.	.
.	.	.	.	16gg\L	.	16bb 16b\	.	.	.	.	.	.	.	.	.	.	.
.	.	.	.	16ff#\JJ	.	16bb 16b\	.	.	.	.	.	.	.	.	.	.	.
4E/	.	4e\	.	8gg\L	.	16bb 16b\	.	4ee\	4ee\	4e\	.	4e\	.	4ee\	.	4gg\	.
.	.	.	.	.	.	16bb 16b\	.	.	.	.	.	.	.	.	.	.	.
.	.	.	.	8bb\	.	16bb 16b\	.	.	.	.	.	.	.	.	.	.	.
.	.	.	.	.	.	16bb 16b\	.	.	.	.	.	.	.	.	.	.	.
4r	.	4g\	.	8ee\	.	16bb 16b\	.	4r	4r	4r	.	4r	.	4r	.	4r	.
.	.	.	.	.	.	16bb 16b\	.	.	.	.	.	.	.	.	.	.	.
.	.	.	.	8gg\J	.	16bb 16b\	.	.	.	.	.	.	.	.	.	.	.
.	.	.	.	.	.	16bb 16b\JJ	.	.	.	.	.	.	.	.	.	.	.
!LO:LB:g=original	!	!	!	!	!	!	!	!	!	!	!	!	!	!	!	!	!
=69	=69	=69	=69	=69	=69	=69	=69	=69	=69	=69	=69	=69	=69	=69	=69	=69	=69
4C#/	.	4e\	.	8a\L	.	16aa 16a\LL	.	4a/	4ee\	4r	.	4r	.	4r	.	4r	.
.	.	.	.	.	.	16aa 16a\	.	.	.	.	.	.	.	.	.	.	.
.	.	.	.	16ee\L	.	16aa 16a\	.	.	.	.	.	.	.	.	.	.	.
.	.	.	.	16ff#\JJ	.	16aa 16a\	.	.	.	.	.	.	.	.	.	.	.
4AA/	.	4c#\	.	8gg\L	.	16aa 16a\	.	4r	4r	4A/	.	4e\	.	4ee\	.	4gg\	.
.	.	.	.	.	.	16aa 16a\	.	.	.	.	.	.	.	.	.	.	.
.	.	.	.	16ff#\L	.	16aa 16a\	.	.	.	.	.	.	.	.	.	.	.
.	.	.	.	16ee\JJ	.	16aa 16a\	.	.	.	.	.	.	.	.	.	.	.
4Dn/	.	4dn\	.	8ff#\L	.	16aa 16a\	.	4d/	4dd\	4d\	.	4f#\	.	4dd\	.	4ff#\	.
.	.	.	.	.	.	16aa 16a\	.	.	.	.	.	.	.	.	.	.	.
.	.	.	.	8aa\	.	16aa 16a\	.	.	.	.	.	.	.	.	.	.	.
.	.	.	.	.	.	16aa 16a\	.	.	.	.	.	.	.	.	.	.	.
4r	.	4f#\	.	8dd\	.	16aa 16a\	.	4r	4r	4r	.	4r	.	4r	.	4r	.
.	.	.	.	.	.	16aa 16a\	.	.	.	.	.	.	.	.	.	.	.
.	.	.	.	8ff#\J	.	16aa 16a\	.	.	.	.	.	.	.	.	.	.	.
.	.	.	.	.	.	16aa 16a\JJ	.	.	.	.	.	.	.	.	.	.	.
=70	=70	=70	=70	=70	=70	=70	=70	=70	=70	=70	=70	=70	=70	=70	=70	=70	=70
4C#/	.	4a\	.	8a\L	.	16aa 16a\LL	.	4a/	4ee\	4r	.	4r	.	4r	.	4r	.
.	.	.	.	.	.	16aa 16a\	.	.	.	.	.	.	.	.	.	.	.
.	.	.	.	16ee\L	.	16aa 16a\	.	.	.	.	.	.	.	.	.	.	.
.	.	.	.	16ff#\JJ	.	16aa 16a\	.	.	.	.	.	.	.	.	.	.	.
4AA/	.	4c#\	.	8gg\L	.	16aa 16a\	.	4r	4r	4A/	.	4e\	.	4ee\	.	4gg\	.
.	.	.	.	.	.	16aa 16a\	.	.	.	.	.	.	.	.	.	.	.
.	.	.	.	16ff#\L	.	16aa 16a\	.	.	.	.	.	.	.	.	.	.	.
.	.	.	.	16ee\JJ	.	16aa 16a\	.	.	.	.	.	.	.	.	.	.	.
4D/	.	4d\	.	8ff#\L	.	16aa 16a\	.	4d/	4dd\	4d\	.	4f#\	.	4dd\	.	4ff#\	.
.	.	.	.	.	.	16aa 16a\	.	.	.	.	.	.	.	.	.	.	.
.	.	.	.	8aa\	.	16aa 16a\	.	.	.	.	.	.	.	.	.	.	.
.	.	.	.	.	.	16aa 16a\	.	.	.	.	.	.	.	.	.	.	.
4r	.	4f#\	.	8dd\	.	16aa 16a\	.	4r	4r	4r	.	4r	.	4r	.	4r	.
.	.	.	.	.	.	16aa 16a\	.	.	.	.	.	.	.	.	.	.	.
.	.	.	.	8ff#\J	.	16aa 16a\	.	.	.	.	.	.	.	.	.	.	.
.	.	.	.	.	.	16aa 16a\JJ	.	.	.	.	.	.	.	.	.	.	.
*	*	*	*	*	*	*Xtremolo	*	*	*	*	*	*	*	*	*	*	*
!	!	!	!	!	!	!	!	!	!	!	!	!	!	!	!	!LO:LB:g=original	!
!	!	!	!	!	!	!LO:LB:g=original	!	!	!	!	!	!	!	!	!	!	!
=71	=71	=71	=71	=71	=71	=71	=71	=71	=71	=71	=71	=71	=71	=71	=71	=71	=71
4F#\	.	4d\	.	4dd 4d/	.	8aa\	.	4d/	4dd\	4d\	.	4d\	.	4dd\	.	4aa\	.
.	.	.	.	.	.	4ddd\	.	.	.	.	.	.	.	.	.	.	.
8r	.	8r	.	8r	.	.	.	4r	4r	4r	.	4r	.	8r	.	2ddd\	.
16D\LL	.	16d\LL	.	16ff#\LL	.	4ddd\	.	.	.	.	.	.	.	16ff#\LL	.	.	.
16E\JJ	.	16e\JJ	.	16gg\JJ	.	.	.	.	.	.	.	.	.	16gg\JJ	.	.	.
8F#\L	.	8f#\L	.	8aa\L	.	.	.	4r	4r	4d\	.	4d\	.	8aa\L	.	.	.
8D\	.	8d\	.	8ff#\	.	4ddd\	.	.	.	.	.	.	.	8ff#\	.	.	.
8G\	.	8g\	.	8bb\	.	.	.	4d/	4dd\	4d\	.	4d\	.	8bb\	.	[<4ddd\	.
!	!	!	!	!LO:TX:b:t=g	!	!	!	!	!	!	!	!	!	!	!	!	!
8E\J	.	8e\J	.	8bb\J	.	[<8ddd\	.	.	.	.	.	.	.	8gg\J	.	.	.
!	!	!	!	!LO:LB:g=original	!	!	!	!	!	!	!	!	!	!	!	!	!
=72	=72	=72	=72	=72	=72	=72	=72	=72	=72	=72	=72	=72	=72	=72	=72	=72	=72
4F#\	.	4f#\	.	4aa\	.	8ddd\]	.	4d/	4dd\	4d\	.	4d\	.	4aa\	.	4ddd\]	.
.	.	.	.	.	.	4ddd\	.	.	.	.	.	.	.	.	.	.	.
8r	.	8r	.	8r	.	.	.	4r	4r	4r	.	4r	.	8r	.	2ddd\	.
16D\LL	.	16d\LL	.	16ff#\LL	.	4ddd\	.	.	.	.	.	.	.	16ff#\LL	.	.	.
16E\JJ	.	16e\JJ	.	16gg\JJ	.	.	.	.	.	.	.	.	.	16gg\JJ	.	.	.
8F#\L	.	8f#\L	.	8aa\L	.	.	.	4r	4r	4d\	.	4d\	.	8aa\L	.	.	.
8D\	.	8d\	.	8ff#\	.	4ddd\	.	.	.	.	.	.	.	8ff#\	.	.	.
8G\	.	8g\	.	8bb\	.	.	.	4d/	4dd\	4d\	.	4d\	.	8bb\	.	4ddd\	.
8E\J	.	8e\J	.	8gg\J	.	8ddd\	.	.	.	.	.	.	.	8gg\J	.	.	.
!	!	!	!	!	!	!	!	!LO:LB:g=original	!	!	!	!	!	!	!	!	!
=73	=73	=73	=73	=73	=73	=73	=73	=73	=73	=73	=73	=73	=73	=73	=73	=73	=73
4F#\	.	4f#\	.	8aa\	.	8ddd\	.	4d/	4dd\	4d\	.	4d\	.	8aa\	f	8ddd\	f
.	.	.	.	4dd\	.	4ddd\	.	.	.	.	.	.	.	4dd\	.	4ddd\	.
4F#\	.	2d\	.	.	.	.	.	4r	4r	4r	.	4r	.	.	.	.	.
.	.	.	.	4cc#\	.	4ccc#\	.	.	.	.	.	.	.	4cc#\	.	4ccc#\	.
4G\	.	.	.	.	.	.	.	2r	2r	2r	.	2r	.	.	.	.	.
.	.	.	.	4b\	.	4bb\	.	.	.	.	.	.	.	4b\	.	4bb\	.
4F#\	.	4dd\	.	.	.	.	.	.	.	.	.	.	.	.	.	.	.
.	.	.	.	8a#X\	.	8aa#X\	.	.	.	.	.	.	.	8a#X\	.	8aa#X\	.
!	!	!	!	!	!	!	!	!	!	!	!	!	!	!LO:LB:g=original	!	!	!
=74	=74	=74	=74	=74	=74	=74	=74	=74	=74	=74	=74	=74	=74	=74	=74	=74	=74
!	!	!	!	!	!	!	!	!LO:TX:a:t=2	!LO:TX:a:t=6	!LO:TX:a:t=2	!	!	!	!	!	!	!
!	!	!	!	!	!	!LO:SIC:s=8aa#:v	!	!	!	!	!	!	!	!	!	!LO:SIC:s=8aa#:v	!
4G\	.	4dd\	.	8a\	.	8aa\	.	0r	0r	0r	.	0r	.	8a#X/	.	8aa\	.
.	.	.	.	4b\	.	4bb\	.	.	.	.	.	.	.	4b/	.	4bb\	.
!	!	!LO:SIC:s=4dd:v:t=dźwięk nieczytelny	!	!	!	!	!	!	!	!	!	!	!	!	!	!	!
4F#\	.	4rryy	.	.	.	.	.	.	.	.	.	.	.	.	.	.	.
.	.	.	.	4an/	.	4aan\	.	.	.	.	.	.	.	4an/	.	4aan\	.
!	!	!LO:LB:g=original	!	!	!	!	!	!	!	!	!	!	!	!	!	!	!
4E\	.	4b\	.	.	.	.	.	.	.	.	.	.	.	.	.	.	.
.	.	.	.	4g/	.	4gg\	.	.	.	.	.	.	.	4g/	.	4gg\	.
4D#X\	.	4b\	.	.	.	.	.	.	.	.	.	.	.	.	.	.	.
.	.	.	.	8f#/	.	8ff#\	.	.	.	.	.	.	.	8f#/	.	8ff#\	.
=75	=75	=75	=75	=75	=75	=75	=75	=75	=75	=75	=75	=75	=75	=75	=75	=75	=75
4E\	.	4b\	.	8f#/	.	8ff#\	.	.	.	.	.	.	.	8f#/	.	8ff#\	.
.	.	.	.	4g/	.	4gg\	.	.	.	.	.	.	.	4g/	.	4gg\	.
4F#\	.	4b\	.	.	.	.	.	.	.	.	.	.	.	.	.	.	.
.	.	.	.	4f#/	.	4ff#\	.	.	.	.	.	.	.	4f#/	.	4ff#\	.
4G\	.	4g\	.	.	.	.	.	.	.	.	.	.	.	.	.	.	.
.	.	.	.	4e/	.	4ee\	.	.	.	.	.	.	.	4e/	.	4ee\	.
4G#X\	.	4g\	.	.	.	.	.	.	.	.	.	.	.	.	.	.	.
.	.	.	.	8d/	.	8dd\	.	.	.	.	.	.	.	8d/	.	8dd\	.
=76	=76	=76	=76	=76	=76	=76	=76	=76	=76	=76	=76	=76	=76	=76	=76	=76	=76
!LO:TX:a:t=P:problem=pominięty fragment	!	!LO:TX:a:t=P:problem=pominięty fragment	!	!LO:TX:a:t=P:problem=pominięty fragment	!	!LO:TX:a:t=P:problem=pominięty fragment	!	!LO:TX:a:t=P:problem=pominięty fragment	!LO:TX:a:t=P:problem=pominięty fragment	!LO:TX:a:t=P:problem=pominięty fragment	!	!LO:TX:a:t=P:problem=pominięty fragment	!	!LO:TX:a:t=P:problem=pominięty fragment	!	!LO:TX:a:t=P:problem=pominięty fragment	!
1ryy	.	1ryy	.	1ryy	.	1ryy	.	1ryy	1r	1ryy	.	1ryy	.	1ryy	.	1ryy	.
=77	=77	=77	=77	=77	=77	=77	=77	=77	=77	=77	=77	=77	=77	=77	=77	=77	=77
!LO:TX:a:t=P:problem=mixed beam	!	!	!	!LO:TX:a:t=P:problem=mixed beam	!	!	!	!	!	!	!	!	!	!	!	!	!
8A\L	.	8e\L	.	8c#/L	.	4cc#\	.	4r	4r	4A/	.	4e\	.	4c#/	.	4cc#\	.
8A\	.	8a\	.	16ee\L	.	.	.	.	.	.	.	.	.	.	.	.	.
.	.	.	.	16ff#\JJ	.	.	.	.	.	.	.	.	.	.	.	.	.
.	.	.	.	8qqaa/	.	.	.	.	.	.	.	.	.	.	.	.	.
8AA/	.	8a\	.	8gg\L	.	4ccc# 4ee 4a/	.	4a/	4ee\	8r	.	8r	.	4ee\	.	4ccc#\	.
8A\J	.	8a\J	.	16ff#\L	.	.	.	.	.	8A/	.	8e\	.	.	.	.	.
.	.	.	.	16ee\JJ	.	.	.	.	.	.	.	.	.	.	.	.	.
*	*	*tremolo	*	*	*	*	*	*	*	*	*	*tremolo	*	*	*	*	*
!LO:TX:a:t=P:problem=mixed beam	!	!	!	!	!	!	!	!	!	!	!	!	!	!	!	!	!
8A\L	.	8a\L	.	4ff#\	.	8dddL 8ff# 8a/	.	4dd\	4ff#\	8A/L	.	8e\L	.	4ff#\	.	4ddd\	.
8AA/	.	8a\	.	.	.	16dd/L	.	.	.	8A/	.	8e\	.	.	.	.	.
.	.	.	.	.	.	16ee/JJ	.	.	.	.	.	.	.	.	.	.	.
.	.	.	.	.	.	8qqgg/	.	.	.	.	.	.	.	.	.	.	.
8A\	.	8a\	.	4ddd 4ff# 4d/	.	8ff#\L	.	4f#/	4dd\	8A/	.	8e\	.	4dd\	.	4ff#\	.
8AA/J	.	8a\J	.	.	.	16ee\L	.	.	.	8d/J	.	8e\J	.	.	.	.	.
.	.	.	.	.	.	16dd\JJ	.	.	.	.	.	.	.	.	.	.	.
*	*	*	*	*	*	*	*	*	*	*	*	*Xtremolo	*	*	*	*	*
!	!	!	!	!	!	!	!	!	!	!	!	!LO:LB:g=original	!	!	!	!	!
!	!	!	!	!	!	!LO:LB:g=original	!	!	!	!	!	!	!	!	!	!	!
!LO:LB:g=original	!	!	!	!	!	!	!	!	!	!	!	!	!	!	!	!	!
=78	=78	=78	=78	=78	=78	=78	=78	=78	=78	=78	=78	=78	=78	=78	=78	=78	=78
!LO:TX:a:t=P:problem=mixed beam	!	!	!	!	!	!	!	!	!	!	!	!	!	!	!	!	!
8A\L	.	8a\L	.	8ccc# 8ee 8a/	.	4aa\	.	4a/	4ee\	4A/	.	4e\	.	4cc#\	.	4ee\	.
8AA/	.	8a\	.	16ee\LL	.	.	.	.	.	.	.	.	.	.	.	.	.
.	.	.	.	16ff#\JJ	.	.	.	.	.	.	.	.	.	.	.	.	.
.	.	.	.	8qqaa/	.	.	.	.	.	.	.	.	.	.	.	.	.
8A\	.	8a\	.	8gg\L	.	4ccc# 4ee 4a/	.	4a/	4ee\	8r	.	8r	.	4ee\	.	4ccc#\	.
8AA/J	.	8a\J	.	16ff#\L	.	.	.	.	.	8A/	.	8e\	.	.	.	.	.
.	.	.	.	16ee\JJ	.	.	.	.	.	.	.	.	.	.	.	.	.
!	!	!	!	!LO:LB:g=original	!	!	!	!	!	!	!	!	!	!	!	!	!
*	*	*	*	*	*	*	*	*	*	*	*	*tremolo	*	*	*	*	*
!LO:TX:a:t=P:problem=mixed beam	!	!	!	!	!	!	!	!	!	!	!	!	!	!	!	!	!
8A\L	.	8a\L	.	4ff#\	.	8ddd\L	.	4dd\	4ff#\	8A/L	.	8e\L	.	4ff#\	.	4ddd\	.
8AA/	.	8a\	.	.	.	16dd\L	.	.	.	8A/	.	8e\	.	.	.	.	.
.	.	.	.	.	.	16ee\JJ	.	.	.	.	.	.	.	.	.	.	.
.	.	.	.	.	.	8qqgg/	.	.	.	.	.	.	.	.	.	.	.
8A\	.	8a\	.	4ddd 4ff# 4d/	.	8ff#\L	.	4f#/	4dd\	8A/	.	8e\	.	4dd\	.	4ff#\	.
8AA/J	.	8a\J	.	.	.	16ee\L	.	.	.	8d/J	.	8e\J	.	.	.	.	.
.	.	.	.	.	.	16dd\JJ	.	.	.	.	.	.	.	.	.	.	.
*	*	*	*	*	*	*	*	*	*	*	*	*Xtremolo	*	*	*	*	*
=79	=79	=79	=79	=79	=79	=79	=79	=79	=79	=79	=79	=79	=79	=79	=79	=79	=79
!LO:TX:a:t=P:problem=mixed beam	!	!	!	!	!	!	!	!	!	!	!	!	!	!	!	!	!
8A\L	.	8a\L	.	4ccc# 4ee 4a/	.	4aa 4a/	.	4a/	4ee\	4A/	.	4e\	.	4cc#\	.	4ee\	.
8AA/	.	8a\	.	.	.	.	.	.	.	.	.	.	.	.	.	.	.
8AA/	.	8a\	.	4aa 4a/	.	4ccc# 4a/	.	4a/	4ee\	4A/	.	4e\	.	4cc#\	.	4aa\	.
8AA/J	.	8a\J	.	.	.	.	.	.	.	.	.	.	.	.	.	.	.
*	*	*Xtremolo	*	*	*	*	*	*	*	*	*	*	*	*	*	*	*
!	!	!	!	!	!	!	!	!	!	!	!	!	!	!	!	!LO:LB:g=original	!
4AA/	.	4a\	.	4aa 4a/	.	4aa 4a/	.	4a/	4ee\	4A/	.	4e\	.	4cc#\	.	4aa\	.
4r	.	4r	.	4r	.	4r	.	4r	4r	4r	.	4r	.	4r	.	4r	.
=80	=80	=80	=80	=80	=80	=80	=80	=80	=80	=80	=80	=80	=80	=80	=80	=80	=80
*	*	*tremolo	*	*	*	*	*	*	*	*	*	*	*	*	*	*	*
!	!	!	!LO:DY:b:t=%s:rj	!	!	!	!	!	!	!LO:TX:a:t=3	!	!	!	!	!	!	!
4D\	.	8d\L	f	4d/	.	4d/	.	0r	0r	0r	.	0r	.	1r	.	1r	.
.	.	8d\	.	.	.	.	.	.	.	.	.	.	.	.	.	.	.
!	!	!	!LO:DY:b:t=%s:rj	!	!	!	!	!	!	!	!	!	!	!	!	!	!
4r	.	8d\	p	8r	p	8r	p	.	.	.	.	.	.	.	.	.	.
.	.	8d\J	.	16ff#\LL	.	16aa\LL	.	.	.	.	.	.	.	.	.	.	.
.	.	.	.	16ee\JJ	.	16gg\JJ	.	.	.	.	.	.	.	.	.	.	.
2r	.	8d\L	.	8dd\L	.	8ff#`>\L	.	.	.	.	.	.	.	.	.	.	.
.	.	8d\	.	8ee\	.	8gg`>\	.	.	.	.	.	.	.	.	.	.	.
.	.	8d\	.	8ff#\	.	8aa`>\	.	.	.	.	.	.	.	.	.	.	.
.	.	8d\J	.	8dd\J	.	8ff#`>\J	.	.	.	.	.	.	.	.	.	.	.
=81	=81	=81	=81	=81	=81	=81	=81	=81	=81	=81	=81	=81	=81	=81	=81	=81	=81
!LO:TX:a:t=2	!	!	!	!	!	!	!	!	!	!	!	!	!	!	!	!	!
!	!	!	!	!	!	!	!	!	!	!	!	!	!	!	!LO:DY:b:rj	!	!LO:DY:b:rj
0r	.	8d\L	.	8gg\L	.	(>8bb\L	.	.	.	.	.	.	.	(>8gg\L	p	(>8bb\L	p
.	.	8d\	.	8ee\J	.	8gg\J)	.	.	.	.	.	.	.	8ee\J)	.	8gg\J)	.
.	.	8d\	.	8r	.	8r	.	.	.	.	.	.	.	4r	.	4r	.
.	.	8d\J	.	16ee\LL	.	(>16gg\LL	.	.	.	.	.	.	.	.	.	.	.
.	.	.	.	16dd\JJ	.	16ff#\JJ)	.	.	.	.	.	.	.	.	.	.	.
.	.	8d\L	.	8cc#\L	.	8ee`>\L	.	.	.	.	.	.	.	2r	.	2r	.
.	.	8d\	.	8dd\	.	8ff#`>\	.	.	.	.	.	.	.	.	.	.	.
.	.	8d\	.	8ee\	.	8gg`>\	.	.	.	.	.	.	.	.	.	.	.
.	.	8d\J	.	8cc#\J	.	8ee`>\J	.	.	.	.	.	.	.	.	.	.	.
=82	=82	=82	=82	=82	=82	=82	=82	=82	=82	=82	=82	=82	=82	=82	=82	=82	=82
.	.	8d\L	.	8ff#\L	.	8aa\L	.	1r	1r	1r	.	1r	.	8ff#\L	.	(>8aa\L	.
.	.	8d\	.	8dd\J	.	8ff#\J	.	.	.	.	.	.	.	8dd\J	.	8ff#\J)	.
.	.	8d\	.	8r	.	8r	.	.	.	.	.	.	.	4r	.	4r	.
.	.	8d\J	.	16a/LL	.	(>16ff#\LL	.	.	.	.	.	.	.	.	.	.	.
.	.	.	.	16g/JJ	.	16ee\JJ)	.	.	.	.	.	.	.	.	.	.	.
.	.	8d\L	.	8f#/L	.	8dd`>\L	.	.	.	.	.	.	.	2r	.	2r	.
.	.	8d\	.	8g/	.	8ee`>\	.	.	.	.	.	.	.	.	.	.	.
.	.	8d\	.	8a/	.	8ff#`>\	.	.	.	.	.	.	.	.	.	.	.
.	.	8d\J	.	8f#/J	.	8dd`>\J	.	.	.	.	.	.	.	.	.	.	.
!	!	!	!	!	!	!	!	!	!	!LO:LB:g=original	!	!	!	!	!	!	!
!	!	!	!	!	!	!LO:LB:g=original	!	!	!	!	!	!	!	!	!	!	!
=83	=83	=83	=83	=83	=83	=83	=83	=83	=83	=83	=83	=83	=83	=83	=83	=83	=83
!	!	!	!	!	!LO:DY:b:rj	!	!	!	!	!	!	!	!	!	!	!	!
8r	.	8g\L	.	4gg 4b 4d/	f	4bb\	f	4dd\	4dd\	4d\	.	4d\	.	4r	.	4r	.
8G\L	.	8g\	.	.	.	.	.	.	.	.	.	.	.	.	.	.	.
8G\	.	8g\	.	16bb\LL	.	16ddd\LL	.	4r	4r	4r	.	4r	.	8gg\L	f	8bb\L	f
.	.	.	.	16bb\	.	16bb\	.	.	.	.	.	.	.	.	.	.	.
8G\J	.	8g\J	.	16bb\	.	16ddd\	.	.	.	.	.	.	.	8gg\J	.	8bb\J	.
.	.	.	.	16gg\JJ	.	16bb\JJ	.	.	.	.	.	.	.	.	.	.	.
!	!	!	!	!LO:LB:g=original	!	!	!	!	!	!	!	!	!	!	!	!	!
*	*	*	*	*	*	*	*	*	*	*tremolo	*	*tremolo	*	*	*	*	*
4A\	.	8a\L	.	8ff#\L	.	8aa\L	.	4a/	4a/	8A/L	.	8A/L	.	8ff#\L	.	8aa\L	.
.	.	8a\	.	8ee\	.	8gg\	.	.	.	8A/	.	8A/	.	8ee\	.	8gg\	.
4AA/	.	8a\	.	8dd\	.	8ff#\	.	4r	4r	8A/	.	8A/	.	8dd\	.	8ff#\	.
.	.	8a\J	.	8cc#\J	.	8ee\J	.	.	.	8A/J	.	8A/J	.	8cc#\J	.	8ee\J	.
*	*	*Xtremolo	*	*	*	*	*	*	*	*Xtremolo	*	*Xremolo	*	*	*	*	*
!	!	!	!	!	!	!	!	!	!	!	!	!	!	!LO:LB:g=original	!	!	!
!	!	!	!	!	!	!	!	!	!LO:LB:g=original	!	!	!	!	!	!	!	!
=84	=84	=84	=84	=84	=84	=84	=84	=84	=84	=84	=84	=84	=84	=84	=84	=84	=84
4D\	.	4d\	.	4dd\	.	4dd\	.	4d/	4dd\	4F#/	.	4d\	.	4dd\	.	4dd\	.
8r	.	8r	.	8r	.	8r	.	4r	4r	4r	.	4r	.	8r	.	8r	.
16A\LL	.	16a\LL	.	16a/LL	.	16a/LL	.	.	.	.	.	.	.	16a/LL	.	16a/LL	.
16G\JJ	.	16g\JJ	.	16g/JJ	.	16g/JJ	.	.	.	.	.	.	.	16g/JJ	.	16g/JJ	.
!	!	!LO:LB:g=original	!	!	!	!	!	!	!	!	!	!	!	!	!	!	!
8F#\L	.	8f#\L	.	8f#/L	.	8f#/L	.	4f#/	4f#/	4F#/	.	4f#\	.	8f#/L	.	8f#/L	.
8G\	.	8g\	.	8g/	.	8g/	.	.	.	.	.	.	.	8g/	.	8g/	.
8A\	.	8a\	.	8a/	.	8a/	.	4a/	4a/	8A/L	.	8a\L	.	8a/	.	8a/	.
8F#\J	.	8f#\J	.	8f#/J	.	8f#/J	.	.	.	8F#/J	.	8f#\J	.	8f#/J	.	8f#/J	.
=85	=85	=85	=85	=85	=85	=85	=85	=85	=85	=85	=85	=85	=85	=85	=85	=85	=85
*	*	*tremolo	*	*	*	*	*	*	*	*	*	*	*	*	*	*	*
!	!	!	!LO:DY:b:t=%s:rj	!	!	!	!	!	!	!	!LO:DY:b:t=%s:rj	!	!LO:DY:b:t=%s:rj	!	!	!	!
4D\	.	8d\L	f	4d/	.	4d/	.	4d/	4d/	[>1D	f	[>1d	f	4d/	.	4d/	.
.	.	8d\	.	.	.	.	.	.	.	.	.	.	.	.	.	.	.
!	!	!	!LO:DY:b:t=%s:rj	!	!	!	!	!	!	!	!	!	!	!	!	!	!
4r	.	8d\	p	8r	.	8r	.	4r	4r	.	p	.	p	4r	.	4r	.
!	!	!	!	!	!	!	!LO:DY:b:rj	!	!	!	!	!	!	!	!	!	!
.	.	8d\J	.	16ff#\LL	p	16aa\LL	p	.	.	.	.	.	.	.	.	.	.
.	.	.	.	16ee\JJ	.	16gg\JJ	.	.	.	.	.	.	.	.	.	.	.
2r	.	8d\L	.	8dd\L	.	8ff#`>\L	.	2r	2r	.	.	.	.	2r	.	2r	.
.	.	8d\	.	8ee\	.	8gg`>\	.	.	.	.	.	.	.	.	.	.	.
.	.	8d\	.	8ff#\	.	8aa`>\	.	.	.	.	.	.	.	.	.	.	.
.	.	8d\J	.	8dd\J	.	8ff#`>\J	.	.	.	.	.	.	.	.	.	.	.
=86	=86	=86	=86	=86	=86	=86	=86	=86	=86	=86	=86	=86	=86	=86	=86	=86	=86
!LO:TX:a:t=2	!	!	!	!	!	!	!	!LO:TX:a:t=2	!LO:TX:a:t=2	!	!	!	!	!	!	!	!
!	!	!	!	!	!	!	!	!	!	!	!	!	!	!	!LO:DY:b:rj	!	!LO:DY:b:rj
0r	.	8d\L	.	8gg\L	.	8bb\L	.	0r	0r	1D]	.	1d_>	.	(>8gg\L	p	(>8bb\L	p
.	.	8d\	.	8ee\J	.	8gg\J	.	.	.	.	.	.	.	8ee\J)	.	8gg\J)	.
.	.	8d\	.	8r	.	8r	.	.	.	.	.	.	.	4r	.	4r	.
.	.	8d\J	.	16ee\LL	.	16gg\LL	.	.	.	.	.	.	.	.	.	.	.
.	.	.	.	16dd\JJ	.	16ff#\JJ	.	.	.	.	.	.	.	.	.	.	.
.	.	8d\L	.	8cc#\L	.	8ee`>\L	.	.	.	.	.	.	.	2r	.	2r	.
.	.	8d\	.	8dd\	.	8ff#`>\	.	.	.	.	.	.	.	.	.	.	.
.	.	8d\	.	8ee\	.	8gg`>\	.	.	.	.	.	.	.	.	.	.	.
.	.	8d\J	.	8cc#\J	.	8ee`>\J	.	.	.	.	.	.	.	.	.	.	.
=87	=87	=87	=87	=87	=87	=87	=87	=87	=87	=87	=87	=87	=87	=87	=87	=87	=87
.	.	8d\L	.	8ff#\L	.	8aa\L	.	.	.	1D	.	1d_>	.	8ff#\L	.	8aa\L	.
.	.	8d\	.	8dd\J	.	8ff#\J	.	.	.	.	.	.	.	8dd\J	.	8ff#\J	.
.	.	8d\	.	8r	.	8r	.	.	.	.	.	.	.	4r	.	4r	.
.	.	8d\J	.	16a/LL	.	16ff#\LL	.	.	.	.	.	.	.	.	.	.	.
.	.	.	.	16g/JJ	.	16ee\JJ	.	.	.	.	.	.	.	.	.	.	.
.	.	8d\L	.	8f#/L	.	8dd`>\L	.	.	.	.	.	.	.	2r	.	2r	.
.	.	8d\	.	8g/	.	8ee`>\	.	.	.	.	.	.	.	.	.	.	.
.	.	8d\	.	8a/	.	8ff#`>\	.	.	.	.	.	.	.	.	.	.	.
.	.	8d\J	.	8f#/J	.	8dd`>\J	.	.	.	.	.	.	.	.	.	.	.
!	!	!	!	!	!	!LO:PB:g=original	!	!	!	!	!	!	!	!	!	!	!
!	!	!	!	!LO:LB:g=original	!	!	!	!	!	!	!	!	!	!	!	!	!
=88	=88	=88	=88	=88	=88	=88	=88	=88	=88	=88	=88	=88	=88	=88	=88	=88	=88
!	!	!	!LO:DY:b:rj	!	!	!	!LO:DY:b:rj	!	!	!	!	!	!	!	!	!	!
8r	.	8g\L	f	4gg 4b 4d/	f	4bb\	f	4dd\	4dd\	4D/	.	4d\]	.	4r	.	4r	.
8G\L	.	8g\	.	.	.	.	.	.	.	.	.	.	.	.	.	.	.
!	!	!	!	!	!	!	!	!	!	!	!	!	!	!	!LO:DY:b:rj	!	!
8G\	.	8g\	.	16bb\LL	.	16ddd\LL	.	4r	4r	4r	.	4r	.	8gg\L	f	8bb\L	f
.	.	.	.	16gg\	.	16bb\	.	.	.	.	.	.	.	.	.	.	.
8G\J	.	8g\J	.	16bb\	.	16ddd\	.	.	.	.	.	.	.	8gg\J	.	8bb\J	.
.	.	.	.	16gg\JJ	.	16bb\JJ	.	.	.	.	.	.	.	.	.	.	.
*	*	*	*	*	*	*	*	*	*	*tremolo	*	*tremolo	*	*	*	*	*
!	!	!	!	!	!	!	!	!	!	!	!LO:DY:b:t=%s	!	!	!	!	!	!
4A\	.	8a\L	.	8ff#\L	.	8aa\L	.	4a/	N[>4a/	8A/L	f	8A/L	.	8ff#\L	.	8aa\L	.
.	.	8a\	.	8ee\	.	8gg\	.	.	.	8A/	.	8A/	.	8ee\	.	8gg\	.
4AA/	.	8a\	.	8dd\	.	8ff#\	.	4r	4r	8A/	.	8A/	.	8dd\	.	8ff#\	.
.	.	8a\J	.	8cc#\J	.	8ee\J	.	.	.	8A/J	.	8A/J	.	8cc#\J	.	8ee\J	.
*	*	*Xtremolo	*	*	*	*	*	*	*	*Xtremolo	*	*Xtremolo	*	*	*	*	*
!	!	!	!	!	!	!	!	!	!	!	!	!	!	!	!	!LO:LB:g=original	!
!LO:LB:g=original	!	!	!	!	!	!	!	!	!	!	!	!	!	!	!	!	!
=89	=89	=89	=89	=89	=89	=89	=89	=89	=89	=89	=89	=89	=89	=89	=89	=89	=89
4D\	.	4a\	.	4dd\	.	16ff#\LL	.	[>1a	1aN]	4F#/	.	4d\	.	4dd\	.	4ff#\	.
.	.	.	.	.	.	16aa\	.	.	.	.	.	.	.	.	.	.	.
.	.	.	.	.	.	16aa\	.	.	.	.	.	.	.	.	.	.	.
.	.	.	.	.	.	16aa\JJ	.	.	.	.	.	.	.	.	.	.	.
*	*	*	*	*	*	*tremolo	*	*	*	*	*	*	*	*	*	*	*
8r	.	8r	.	8r	.	16aa\LL	.	.	.	4r	.	4r	.	8r	.	8r	.
.	.	.	.	.	.	16aa\	.	.	.	.	.	.	.	.	.	.	.
8G\	.	8e\	.	8cc#\	.	16aa\	.	.	.	.	.	.	.	8cc#\	.	8aa\	.
.	.	.	.	.	.	16aa\JJ	.	.	.	.	.	.	.	.	.	.	.
*	*	*	*	*	*	*	*	*	*	*	*	*	*	*	*	*tremolo	*
8F#\L	.	8d\L	.	8dd\L	.	16aa\LL	.	.	.	8r	.	8r	.	8dd\L	.	8aa\L	.
.	.	.	.	.	.	16aa\	.	.	.	.	.	.	.	.	.	.	.
8E\	.	8c#\	.	8ee\	.	16aa\	.	.	.	8A/L	.	8a\L	.	8ee\	.	8aa\	.
.	.	.	.	.	.	16aa\	.	.	.	.	.	.	.	.	.	.	.
8D\	.	8d\	.	8ff#\	.	16aa\	.	.	.	8A/	.	8a\	.	8ff#\	.	8aa\	.
.	.	.	.	.	.	16aa\	.	.	.	.	.	.	.	.	.	.	.
8C#\J	.	8e\J	.	8gg\J	.	16aa\	.	.	.	8A/J	.	8a\J	.	8gg\J	.	8aa\J	.
.	.	.	.	.	.	16aa\JJ	.	.	.	.	.	.	.	.	.	.	.
*	*	*	*	*	*	*	*	*	*	*	*	*	*	*	*	*Xtremolo	*
=90	=90	=90	=90	=90	=90	=90	=90	=90	=90	=90	=90	=90	=90	=90	=90	=90	=90
4D\	.	32d\LLL	.	32ff#\LLL	.	16aa\LL	.	(>1a]	(1a	4A/	.	4a\	.	4ff#\	.	4aa\	.
.	.	32e\JJ	.	32gg\JJ	.	.	.	.	.	.	.	.	.	.	.	.	.
.	.	8.f#\J	.	8.aa\J	.	16aa\	.	.	.	.	.	.	.	.	.	.	.
.	.	.	.	.	.	16aa\	.	.	.	.	.	.	.	.	.	.	.
.	.	.	.	.	.	16aa\	.	.	.	.	.	.	.	.	.	.	.
8r	.	8r	.	8r	.	16aa\	.	.	.	4r	.	4r	.	8r	.	8r	.
.	.	.	.	.	.	16aa\	.	.	.	.	.	.	.	.	.	.	.
8G\	.	8e\	.	8cc#\	.	16aa\	.	.	.	.	.	.	.	8cc#\	.	8aa\	.
.	.	.	.	.	.	16aa\JJ	.	.	.	.	.	.	.	.	.	.	.
*	*	*	*	*	*	*	*	*	*	*	*	*	*	*	*	*tremolo	*
8F#\L	.	8d\L	.	8dd\L	.	16aa\LL	.	.	.	8r	.	8r	.	8dd\L	.	8aa\L	.
.	.	.	.	.	.	16aa\	.	.	.	.	.	.	.	.	.	.	.
8E\	.	8c#\	.	8ee\	.	16aa\	.	.	.	8A/L	.	8a\L	.	8ee\	.	8aa\	.
.	.	.	.	.	.	16aa\	.	.	.	.	.	.	.	.	.	.	.
8D\	.	8d\	.	8ff#\	.	16aa\	.	.	.	8A/	.	8a\	.	8ff#\	.	8aa\	.
.	.	.	.	.	.	16aa\	.	.	.	.	.	.	.	.	.	.	.
8C#\J	.	8e\J	.	8gg\J	.	16aa\	.	.	.	8A/J	.	8a\J	.	8gg\J	.	8aa\J	.
.	.	.	.	.	.	16aa\JJ	.	.	.	.	.	.	.	.	.	.	.
*	*	*	*	*	*	*Xtremolo	*	*	*	*	*	*	*	*	*	*Xtremolo	*
=91	=91	=91	=91	=91	=91	=91	=91	=91	=91	=91	=91	=91	=91	=91	=91	=91	=91
4D/	.	32d\LLL	.	32ff#\LLL	.	8aa\	.	[>1d)	1dd)	4A/	.	4a\	.	4ff#\	.	4aa\	.
.	.	32e\JJ	.	32gg\JJ	.	.	.	.	.	.	.	.	.	.	.	.	.
.	.	8.f#\J	.	8.aa\J	.	.	.	.	.	.	.	.	.	.	.	.	.
.	.	.	.	.	.	4ddd\	.	.	.	.	.	.	.	.	.	.	.
!	!	!	!	!LO:SIC:s=8r:v:t=w źródle brak pauzy	!	!	!	!	!	!	!	!	!	!	!	!	!
8r	.	8r	.	8ryy	.	.	.	.	.	4r	.	4r	.	8r	.	8r	.
8cn\	.	8a\	.	8ff#\	.	4ddd\	.	.	.	.	.	.	.	8dd\	.	8ff#\	.
!	!	!LO:LB:g=original	!	!	!	!	!	!	!	!	!	!	!	!	!	!	!
*	*	*	*	*	*	*	*	*	*	*	*	*	*	*tremolo	*	*	*
!	!	!	!	!	!	!	!	!	!	!	!	!	!	!LO:LB:g=original	!	!	!
8B\L	.	8g\L	.	8gg\L	.	.	.	.	.	8r	.	8r	.	8dd\L	.	8gg\L	.
8A\	.	8f#\	.	8aa\	.	4ddd\	.	.	.	8D/L	.	8d\L	.	8dd\	.	8aa\	.
8G\	.	8g\	.	8bb\	.	.	.	.	.	8D/	.	8d\	.	8dd\	.	8bb\	.
8F#\J	.	8a\J	.	8cccn\J	.	8ddd\	.	.	.	8D/J	.	8d\J	.	8dd\J	.	8cccn\J	.
*	*	*	*	*	*	*	*	*	*	*	*	*	*	*Xtremolo	*	*	*
!	!	!	!	!LO:PB:g=original	!	!	!	!	!	!	!	!	!	!	!	!	!
=92	=92	=92	=92	=92	=92	=92	=92	=92	=92	=92	=92	=92	=92	=92	=92	=92	=92
4.G\	.	4.g\	.	4bb\	.	4ddd\	.	4d/]	4dd\	4D/	.	4d\	.	4dd\	.	4bb\	.
.	.	.	.	16gg\LL	.	16bb\LL	.	4r	4r	4r	.	4r	.	2gg\	.	2bb\	.
.	.	.	.	16ff#\	.	16aa\	.	.	.	.	.	.	.	.	.	.	.
8G\	.	8g\	.	16gg\	.	16bb\	.	.	.	.	.	.	.	.	.	.	.
.	.	.	.	16aa\JJ	.	16ccc#\JJ	.	.	.	.	.	.	.	.	.	.	.
8G\L	.	8g\L	.	8bb\L	.	8ddd\L	.	2r	2r	2r	.	2r	.	.	.	.	.
8G\	.	8g\	.	8gg\	.	8bb\	.	.	.	.	.	.	.	.	.	.	.
8A\	.	8a\	.	8ff#\	.	8aa\	.	.	.	.	.	.	.	(>8ff#\L	.	8aa\L	.
8A\J	.	8a\J	.	8ee\J	.	8gg\J	.	.	.	.	.	.	.	8ee\J)	.	8gg\J	.
!	!	!	!	!	!	!LO:LB:g=original	!	!	!	!	!	!	!	!	!	!	!
=93	=93	=93	=93	=93	=93	=93	=93	=93	=93	=93	=93	=93	=93	=93	=93	=93	=93
*	*	*	*	*tremolo	*	*	*	*	*	*	*	*	*	*	*	*	*
4B\	.	4b\	.	8dd\L	.	8.ff#\L	.	4r	4r	4d\	.	4d\	.	4dd\	.	8.ff#\L	.
.	.	.	.	8dd\	.	.	.	.	.	.	.	.	.	.	.	.	.
.	.	.	.	.	.	32ee\LL	.	.	.	.	.	.	.	.	.	32ee\LL	.
.	.	.	.	.	.	32ff#\JJJ	.	.	.	.	.	.	.	.	.	32ff#\JJJ	.
4G\	.	4g\	.	8dd\	.	8gg\L	.	4dd\	4dd\	4r	.	4r	.	2dd\	.	8gg\L	.
.	.	.	.	8dd\J	.	8aa\J	.	.	.	.	.	.	.	.	.	8gg\J	.
.	.	.	.	.	.	.	.	.	.	.	.	.	.	.	.	.	.
!	!	!	!	!	!	!	!	!LO:LB:g=original	!	!	!	!	!	!	!	!	!
4A\	.	4a\	.	16dd\LL	.	4a/	.	4dd\	4ff#\	4d\	.	4f#\	.	.	.	4ff#\	.
.	.	.	.	16dd\	.	.	.	.	.	.	.	.	.	.	.	.	.
.	.	.	.	16dd\	.	.	.	.	.	.	.	.	.	.	.	.	.
.	.	.	.	16dd\JJ	.	.	.	.	.	.	.	.	.	.	.	.	.
4AA/	.	4A/	.	16cc#\LL	.	4ee\	.	4a/	4ee\	4A/	.	4e\	.	4cc#\	.	4ee\	.
.	.	.	.	16cc#\	.	.	.	.	.	.	.	.	.	.	.	.	.
.	.	.	.	16cc#\	.	.	.	.	.	.	.	.	.	.	.	.	.
.	.	.	.	16cc#\JJ	.	.	.	.	.	.	.	.	.	.	.	.	.
*	*	*	*	*Xtremolo	*	*	*	*	*	*	*	*	*	*	*	*	*
!	!	!	!	!	!	!	!	!	!	!	!	!LO:LB:g=original	!	!	!	!	!
=94	=94	=94	=94	=94	=94	=94	=94	=94	=94	=94	=94	=94	=94	=94	=94	=94	=94
!	!	!	!	!LO:TX:a:t=P:problem=mixed beam	!	!	!	!	!	!	!	!	!	!	!	!	!
!	!	!	!	!	!LO:DY:b:rj	!	!	!	!	!	!	!	!	!	!	!	!
4D\	.	4d\	.	8dd\L	p	4dd\	.	4dd\	4dd\	4F#/	.	4d\	.	4dd\	.	4dd\	.
.	.	.	.	16d/L	.	.	.	.	.	.	.	.	.	.	.	.	.
.	.	.	.	16e/JJ	.	.	.	.	.	.	.	.	.	.	.	.	.
4r	.	4r	.	8f#/L	.	4aa`>\	p	4r	4r	4r	.	4r	.	4r	.	4r	.
.	.	.	.	8d/J	.	.	.	.	.	.	.	.	.	.	.	.	.
2r	.	2r	.	8g/L	.	4bb`>\	.	2r	2r	2r	.	2r	.	2r	.	2r	.
.	.	.	.	8e/	.	.	.	.	.	.	.	.	.	.	.	.	.
.	.	.	.	8g/	.	4ccc#`>\	.	.	.	.	.	.	.	.	.	.	.
.	.	.	.	8f#/J	.	.	.	.	.	.	.	.	.	.	.	.	.
=95	=95	=95	=95	=95	=95	=95	=95	=95	=95	=95	=95	=95	=95	=95	=95	=95	=95
8r	.	8r	.	4f#/	.	4ddd\	.	4r	4r	4r	.	4r	.	4r	.	4r	.
16D\LL	.	16d\LL	.	.	.	.	.	.	.	.	.	.	.	.	.	.	.
16E\JJ	.	16e\JJ	.	.	.	.	.	.	.	.	.	.	.	.	.	.	.
*	*	*	*	*tremolo	*	*	*	*	*	*	*	*	*	*	*	*	*
8F#\L	.	8f#\L	.	16dd\LL	.	4aa 4a/	f	4dd\	4aa\	4d\	.	4a\	.	4dd\	.	4aa\	.
.	.	.	.	16dd\	.	.	.	.	.	.	.	.	.	.	.	.	.
8D\J	.	8d\J	.	16dd\	.	.	.	.	.	.	.	.	.	.	.	.	.
.	.	.	.	16dd\JJ	.	.	.	.	.	.	.	.	.	.	.	.	.
!LO:TX:a:t=P:problem=mixed beam	!	!LO:TX:a:t=P:problem=mixed beam	!	!	!	!	!	!	!	!	!	!	!	!	!	!	!
8G\L	.	8g\L	.	16b\LL	.	4gg 4b/	.	4ee\	4gg\	4e\	.	4g\	.	4ee\	.	4gg\	.
.	.	.	.	16b\	.	.	.	.	.	.	.	.	.	.	.	.	.
8E\	.	8e\	.	16b\	.	.	.	.	.	.	.	.	.	.	.	.	.
.	.	.	.	16b\JJ	.	.	.	.	.	.	.	.	.	.	.	.	.
8A\	.	8a\	.	16cc#\LL	.	4ee 4a/	.	4a/	4ee\	4A/	.	4e\	.	4cc#\	.	4ee\	.
.	.	.	.	16cc#\	.	.	.	.	.	.	.	.	.	.	.	.	.
8AA/J	.	8A/J	.	16cc#\	.	.	.	.	.	.	.	.	.	.	.	.	.
.	.	.	.	16cc#\JJ	.	.	.	.	.	.	.	.	.	.	.	.	.
*	*	*	*	*Xtremolo	*	*	*	*	*	*	*	*	*	*	*	*	*
!	!	!	!	!	!	!	!	!	!	!	!	!	!	!	!	!LO:LB:g=original	!
!LO:LB:g=original	!	!	!	!	!	!	!	!	!	!	!	!	!	!	!	!	!
=96	=96	=96	=96	=96	=96	=96	=96	=96	=96	=96	=96	=96	=96	=96	=96	=96	=96
!	!	!	!	!LO:TX:a:t=P:problem=mixed beam	!	!	!	!	!	!	!	!	!	!	!	!	!
4D\	.	4d\	.	8dd\L	.	4ff# 4a 4d/	.	4dd\	4ff#\	4d\	.	4f#\	.	4dd\	.	4ff#\	.
.	.	.	.	16d/L	.	.	.	.	.	.	.	.	.	.	.	.	.
.	.	.	.	16e/JJ	.	.	.	.	.	.	.	.	.	.	.	.	.
4r	.	4r	.	8f#/L	.	4aa\	p	4r	4r	4r	.	4r	.	4r	.	4r	.
.	.	.	.	8d/J	.	.	.	.	.	.	.	.	.	.	.	.	.
2r	.	2r	.	8g/L	.	4bb\	.	2r	2r	2r	.	2r	.	2r	.	2r	.
.	.	.	.	8e/	.	.	.	.	.	.	.	.	.	.	.	.	.
.	.	.	.	8a/	.	4ccc#\	.	.	.	.	.	.	.	.	.	.	.
.	.	.	.	8g/J	.	.	.	.	.	.	.	.	.	.	.	.	.
!	!	!	!	!	!	!	!	!	!	!LO:LB:g=original	!	!	!	!	!	!	!
!	!	!	!	!LO:LB:g=original	!	!	!	!	!	!	!	!	!	!	!	!	!
=97	=97	=97	=97	=97	=97	=97	=97	=97	=97	=97	=97	=97	=97	=97	=97	=97	=97
8r	.	8r	.	4f#/	.	4ddd\	.	4r	4r	4r	.	4r	.	4r	.	4r	.
16D\LL	.	16d\LL	.	.	.	.	.	.	.	.	.	.	.	.	.	.	.
16E\JJ	.	16e\JJ	.	.	.	.	.	.	.	.	.	.	.	.	.	.	.
*	*	*	*	*tremolo	*	*	*	*	*	*	*	*	*	*	*	*	*
8F#\L	.	8f#\L	.	16dd\LL	.	4aa 4a/	f	4dd\	4aa\	4d\	.	4a\	.	4dd\	.	4aa\	.
.	.	.	.	16dd\	.	.	.	.	.	.	.	.	.	.	.	.	.
8D\J	.	8d\J	.	16dd\	.	.	.	.	.	.	.	.	.	.	.	.	.
.	.	.	.	16dd\JJ	.	.	.	.	.	.	.	.	.	.	.	.	.
!LO:TX:a:t=P:problem=mixed beam	!	!LO:TX:a:t=P:problem=mixed beam	!	!	!	!	!	!	!	!	!	!	!	!	!	!	!
8G\L	.	8g\L	.	16b\LL	.	4gg 4b/	.	4ee\	4gg\	4e\	.	4g\	.	4ee\	.	4gg\	.
.	.	.	.	16b\	.	.	.	.	.	.	.	.	.	.	.	.	.
8E\	.	8e\	.	16b\	.	.	.	.	.	.	.	.	.	.	.	.	.
.	.	.	.	16b\JJ	.	.	.	.	.	.	.	.	.	.	.	.	.
8A\	.	8a\	.	16cc#\LL	.	4ee 4a/	.	4a/	4ee\	4A/	.	4e\	.	4cc#\	.	4ee\	.
.	.	.	.	16cc#\	.	.	.	.	.	.	.	.	.	.	.	.	.
8AA/J	.	8A/J	.	16cc#\	.	.	.	.	.	.	.	.	.	.	.	.	.
.	.	.	.	16cc#\JJ	.	.	.	.	.	.	.	.	.	.	.	.	.
*	*	*	*	*Xtremolo	*	*	*	*	*	*	*	*	*	*	*	*	*
=98	=98	=98	=98	=98	=98	=98	=98	=98	=98	=98	=98	=98	=98	=98	=98	=98	=98
4.D\	.	4.d\	.	4dd\	.	4ff# 4a 4d/	.	4dd\	4ff#\	4d\	.	4f#\	.	4dd\	.	4ff#\	.
.	.	.	.	8.r	.	8.r	.	4r	4r	8.r	.	8.r	.	8.r	.	8.r	.
16r	.	16r	.	.	.	.	.	.	.	.	.	.	.	.	.	.	.
16D\	.	16d\	.	16d/	.	16d/	.	.	.	16D/	.	16d\	.	16d/	.	16d/	.
!	!	!LO:LB:g=original	!	!	!	!	!	!	!	!	!	!	!	!	!	!	!
!	!	!	!	!	!	!	!	!	!LO:TX:a:t=P:problem=pominięty fragment	!	!	!	!	!	!	!	!
4D\	.	4d\	.	4d/	.	4d/	.	4d/	2ryy	4D/	.	4d\	.	4d/	.	4f#/	.
4F#\	.	4f#\	.	4f#/	.	4f#/	.	4f#/	.	4F#/	.	4f#\	.	4f#/	.	4a/	.
!	!	!	!	!	!	!	!	!	!LO:LB:g=original	!	!	!	!	!	!	!	!
!	!	!	!	!	!	!LO:LB:g=original	!	!	!	!	!	!	!	!	!	!	!
=99	=99	=99	=99	=99	=99	=99	=99	=99	=99	=99	=99	=99	=99	=99	=99	=99	=99
4A\	.	4a\	.	4a/	.	4a/	.	4a/	4d/	4A/	.	4a\	.	4a/	.	4a/	.
8r	.	8r	.	8r	.	8r	.	4r	4f#/	4r	.	4r	.	8r	.	8r	.
!	!	!	!	!	!	!	!	!	!LO:TX:a:t=P:problem=w źródle niepotrzebna kreska taktowa; ma to związek ze wcześniej pominiętą pauzą	!	!	!	!	!	!	!	!
8F#\	.	8f#\	.	8f#/	.	8f#/	.	.	.	.	.	.	.	8f#/	.	8f#/	.
8G\L	.	8g\L	.	8g/L	.	8g/L	.	2r	4a/	2r	.	2r	.	8g/L	.	8g/L	.
8A\	.	8a\	.	8a/	.	8a/	.	.	.	.	.	.	.	8a/	.	8a/	.
8B\	.	8b\	.	8b/	.	8b/	.	.	4r	.	.	.	.	8b/	.	8b/	.
8c#\J	.	8cc#\J	.	8cc#/J	.	8cc#/J	.	.	.	.	.	.	.	8cc#/J	.	8cc#/J	.
!	!	!	!	!	!	!	!	!	!	!	!	!	!	!LO:LB:g=original	!	!	!
=100	=100	=100	=100	=100	=100	=100	=100	=100	=100	=100	=100	=100	=100	=100	=100	=100	=100
4d\	.	4dd\	.	4dd\	.	4dd\	.	4d/	4d/	4D/	.	4d\	.	4dd\	.	4dd\	.
4r	.	4r	.	4r	.	4r	.	4r	4r	8.F#/L	.	8.d\L	.	4r	.	4r	.
.	.	.	.	.	.	.	.	.	.	16F#/Jk	.	16d\Jk	.	.	.	.	.
4D/	.	4d\	.	4dd 4d/	.	4ff# 4a 4d/	.	4d/	4d/	4F#/	.	4d\	.	4dd\	.	4dd\	.
4D/	.	4d\	.	4ff# 4a 4d/	.	4ff# 4a 4d/	.	4f#/	4f#/	4F#/	.	4d\	.	4ff#\	.	4ff#\	.
=101	=101	=101	=101	=101	=101	=101	=101	=101	=101	=101	=101	=101	=101	=101	=101	=101	=101
4D/	.	4d\	.	4aa 4a 4d/	.	4aa 4a 4d/	.	4a/	4a/	4d\	.	4f#\	.	4aa\	.	4aa\	.
4r	.	4r	.	4r	.	4r	.	4r	4r	8.d\L	.	8.f#\L	.	4r	.	4r	.
.	.	.	.	.	.	.	.	.	.	16d\Jk	.	16f#\Jk	.	.	.	.	.
4D/	.	4d\	.	4ff# 4a 4d/	.	4ff# 4a 4d/	.	4f#/	4f#/	4d\	.	4f#\	.	4dd\	.	4ff#\	.
4D/	.	4d\	.	4aa 4a 4d/	.	4aa 4a 4d/	.	4a/	4a/	4d\	.	4f#\	.	4ff#\	.	4aa\	.
=102	=102	=102	=102	=102	=102	=102	=102	=102	=102	=102	=102	=102	=102	=102	=102	=102	=102
!LO:TX:a:t=P:problem=mixed beam	!	!LO:TX:a:t=P:problem=mixed beam	!	!	!	!	!	!	!	!	!	!	!	!	!	!	!
8D\L	.	8d\L	.	4ff# 4a 4d/	.	4ddd 4a 4d/	.	4f#/	4dd\	4d\	.	4f#\	.	4dd\	.	4ff#\	.
8F#\	.	8f#\	.	.	.	.	.	.	.	.	.	.	.	.	.	.	.
8A\	.	8a\	.	8r	.	8r	.	8r	8r	8r	.	8r	.	8r	.	8r	.
8AA/J	.	8A/J	.	8gg\	.	8ccc# 8a/	.	8a/	8ee\	8A/	.	8e\	.	8cc#\	.	8ee\	.
!LO:TX:a:t=P:problem=mixed beam	!	!LO:TX:a:t=P:problem=mixed beam	!	!	!	!	!	!	!	!	!	!	!	!	!	!	!
8D\L	.	8d\L	.	4ff# 4a 4d/	.	4ddd 4a 4d/	.	4dd\	4ff#\	4F#/	.	4d\	.	4dd\	.	4ff#\	.
8F#\	.	8f#\	.	.	.	.	.	.	.	.	.	.	.	.	.	.	.
8A\	.	8a\	.	8r	.	8r	.	8r	8r	8r	.	8r	.	8r	.	8r	.
8AA/J	.	8A/J	.	8gg\	.	8ccc# 8a/	.	8a/	8ee\	8A/	.	8e\	.	8cc#\	.	8ee\	.
=103	=103	=103	=103	=103	=103	=103	=103	=103	=103	=103	=103	=103	=103	=103	=103	=103	=103
8D\L	.	8d\L	.	4ff# 4a 4d/	.	4ddd 4a 4d/	.	4dd\	4ff#\	4F#/	.	4d\	.	4dd\	.	4ff#\	.
8D\	.	8d\	.	.	.	.	.	.	.	.	.	.	.	.	.	.	.
8D\	.	8d\	.	4ff# 4a 4d/	.	4ddd 4a 4d/	.	4dd\	4ff#\	4F#/	.	4d\	.	4dd\	.	4ff#\	.
8D\J	.	8d\J	.	.	.	.	.	.	.	.	.	.	.	.	.	.	.
4D\	.	4d\	.	4ff# 4a 4d/	.	4ddd 4a 4d/	.	4dd\	4ff#\	4F#/	.	4d\	.	4dd\	.	4ff#\	.
4r	.	4r	.	4r	.	4r	.	4r	4r	4r	.	4r	.	4r	.	4r	.
!	!	!LO:TX:b:i:t=Andante Seque	!	!	!	!	!	!	!	!	!	!	!	!	!	!	!
==	==	==	==	==	==	==	==	==	==	==	==	==	==	==	==	==	==
*-	*-	*-	*-	*-	*-	*-	*-	*-	*-	*-	*-	*-	*-	*-	*-	*-	*-
!!!system-decoration: [(s1,s2)][(s3,s4,s5,s6)][(s7,s8,s9)]s10
!!!RDF**kern: > = above
!!!RDF**kern: < = below
!!!RDF**kern: N = linked
!!!RDF**dynam: f = "for", fontstyle="normal"
!!!RDF**dynam: p = "pia", fontstyle="normal"
!!!EED: Wojciech Jakubiak-Danek
!!!EEV: 2020-10-14
!!!ENC: Krzysztof Stępień
!!!END: 2020-05-22
!!!YEC: Copyright 2022 Narodowy Instytut Fryderyka Chopina (https://polishscores.org)
!!!YEM: License CC-BY-4.0 (https://creativecommons.org/licenses/by/4.0)
